;FLAVOR:Marlin
;TIME:7470
;Filament used: 10.6451m
;Layer height: 0.3
;MINX:101.45
;MINY:55.645
;MINZ:0.2
;MAXX:149.941
;MAXY:110.153
;MAXZ:77.9
;Generated with Cura_SteamEngine 4.12.1
M82 ;absolute extrusion mode
;Sliced at: Mon 03-01-2022 23:04:58
;Basic settings: Layer height: 0.3 Walls: 0.8 Fill: 35
G21 ;metric values
G90 ;absolute positioning
M82 ;set extruder to absolute mode
M107 ;start with the fan off
M117 Start heating ...
M104 S240
M117 Homing X/Y ...
G28 X0 Y0 ;move X/Y to min endstops
M117 Homing Z ...
G28 Z0 ;move Z to min endstops
G1 Z15.0 F100 ;move the platform down 15mm
M117 Heating ...
M109 S240
M117 Start cleaning ...
G92 E0 ;zero the extruded length
G1 F200 E10 ;extrude 10mm of feed stock
G92 E0 ;zero the extruded length again
M117 Intro line ...
G1 Z2.0 F3000 ; Move Z Axis up little to prevent scratching of Heat Bed
G1 X0.1 Y20 Z0.3 F5000.0 ; Move to start position
G1 X0.1 Y200.0 Z0.3 F1500.0 E15 ; Draw the first line
G1 X0.4 Y200.0 Z0.3 F5000.0 ; Move to side a little
G1 X0.4 Y20 Z0.3 F1500.0 E30 ; Draw the second line
G92 E0 ; Reset Extruder
G1 E-1 F500 ; Retract filiment by 1 mm
G1 Z2.0 F3000 ; Move Z Axis up little to prevent scratching of Heat Bed
G1 X5 Y20 Z0.3 F100 ; Move over to prevent blob squish
G1 F100
G92 E0 ; Reset Extruder
M117 Printing...

G92 E0
G92 E0
G1 F1800 E-7
;LAYER_COUNT:260
;LAYER:0
M107
G1 F300 Z0.4
G0 F3000 X102.114 Y69.023 Z0.4
;TYPE:SKIRT
G1 F300 Z0.2
G1 F1800 E0
G1 X102.457 Y68.573 E0.01882
G1 X102.859 Y68.176 E0.03761
G1 X103.406 Y67.782 E0.06003
G1 X104.031 Y67.409 E0.08424
G1 X115.764 Y60.617 E0.53515
G1 X122.64 Y56.667 E0.7989
G1 X123.592 Y56.145 E0.83501
G1 X124.106 Y55.909 E0.85382
G1 X124.647 Y55.747 E0.8726
G1 X125.423 Y55.653 E0.8986
G1 X125.771 Y55.645 E0.91018
G1 X126.336 Y55.672 E0.92899
G1 X126.891 Y55.778 E0.94779
G1 X127.426 Y55.962 E0.9666
G1 X127.791 Y56.14 E0.98011
G1 X128.868 Y56.733 E1.021
G1 X147.053 Y67.234 E1.71944
G1 X147.642 Y67.586 E1.74226
G1 X148.106 Y67.91 E1.76108
G1 X148.608 Y68.382 E1.784
G1 X148.979 Y68.809 E1.80281
G1 X149.281 Y69.262 E1.82092
G1 X149.549 Y69.76 E1.83973
G1 X149.745 Y70.29 E1.85853
G1 X149.849 Y70.733 E1.87366
G1 X149.931 Y71.483 E1.89875
G1 X149.941 Y72.185 E1.92211
G1 X149.941 Y93.588 E2.63397
G1 X149.93 Y94.324 E2.65845
G1 X149.881 Y94.887 E2.67725
G1 X149.766 Y95.415 E2.69522
G1 X149.592 Y95.953 E2.71403
G1 X149.345 Y96.461 E2.73282
G1 X149.044 Y96.911 E2.75082
G1 X148.758 Y97.268 E2.76604
G1 X148.368 Y97.678 E2.78486
G1 X147.732 Y98.152 E2.81124
G1 X146.889 Y98.658 E2.84394
G1 X128.795 Y109.105 E3.53886
G1 X127.805 Y109.65 E3.57645
G1 X127.292 Y109.887 E3.59524
G1 X126.75 Y110.049 E3.61406
G1 X125.967 Y110.145 E3.64029
G1 X125.616 Y110.153 E3.65197
G1 X125.051 Y110.126 E3.67078
G1 X124.496 Y110.019 E3.68958
G1 X123.962 Y109.836 E3.70836
G1 X123.601 Y109.661 E3.7217
G1 X122.599 Y109.11 E3.75974
G1 X115.753 Y105.175 E4.02237
G1 X103.995 Y98.367 E4.47427
G1 X103.397 Y98.007 E4.49748
G1 X102.934 Y97.682 E4.5163
G1 X102.522 Y97.295 E4.5351
G1 X102.169 Y96.854 E4.55388
G1 X101.881 Y96.367 E4.5727
G1 X101.665 Y95.845 E4.59149
G1 X101.525 Y95.297 E4.6103
G1 X101.46 Y94.635 E4.63243
G1 X101.45 Y93.909 E4.65658
G1 X101.45 Y71.86 E5.38993
G1 X101.46 Y71.158 E5.41328
G1 X101.508 Y70.595 E5.43207
G1 X101.635 Y70.044 E5.45088
G1 X101.839 Y69.516 E5.46971
G1 X102.114 Y69.023 E5.48848
G0 F3000 X102.511 Y69.151
G1 F1800 X102.85 Y68.735 E5.50633
G1 X103.247 Y68.375 E5.52416
G1 X103.612 Y68.126 E5.53885
G1 X104.231 Y67.755 E5.56285
G1 X115.963 Y60.964 E6.01372
G1 X122.832 Y57.017 E6.27721
G1 X123.784 Y56.495 E6.31333
G1 X124.272 Y56.273 E6.33116
G1 X124.788 Y56.126 E6.349
G1 X125.432 Y56.053 E6.37056
G1 X125.78 Y56.045 E6.38214
G1 X126.316 Y56.073 E6.39999
G1 X126.841 Y56.179 E6.4178
G1 X127.345 Y56.363 E6.43565
G1 X127.599 Y56.49 E6.44509
G1 X128.668 Y57.079 E6.48569
G1 X146.848 Y67.578 E7.18395
G1 X147.437 Y67.93 E7.20677
G1 X147.875 Y68.238 E7.22458
G1 X148.326 Y68.664 E7.24521
G1 X148.82 Y69.282 E7.27153
G1 X148.943 Y69.476 E7.27917
G1 X149.196 Y69.949 E7.29701
G1 X149.429 Y70.678 E7.32246
G1 X149.457 Y70.814 E7.32708
G1 X149.531 Y71.489 E7.34967
G1 X149.541 Y72.191 E7.37302
G1 X149.541 Y93.582 E8.08448
G1 X149.53 Y94.318 E8.10897
G1 X149.482 Y94.852 E8.1268
G1 X149.378 Y95.319 E8.14271
G1 X149.211 Y95.829 E8.16056
G1 X148.971 Y96.309 E8.17841
G1 X148.599 Y96.832 E8.19976
G1 X148.449 Y97.014 E8.2076
G1 X148.078 Y97.401 E8.22543
G1 X147.526 Y97.81 E8.24828
G1 X146.689 Y98.312 E8.28074
G1 X128.602 Y108.755 E8.97539
G1 X127.612 Y109.3 E9.01298
G1 X127.124 Y109.523 E9.03082
G1 X126.609 Y109.671 E9.04865
G1 X125.958 Y109.745 E9.07044
G1 X125.607 Y109.753 E9.08212
G1 X125.071 Y109.725 E9.09997
G1 X124.546 Y109.618 E9.11779
G1 X124.042 Y109.434 E9.13563
G1 X123.793 Y109.31 E9.14488
G1 X122.798 Y108.763 E9.18265
G1 X115.953 Y104.829 E9.44524
G1 X104.201 Y98.024 E9.89691
G1 X103.603 Y97.664 E9.92013
G1 X103.166 Y97.354 E9.93795
G1 X102.779 Y96.983 E9.95578
G1 X102.452 Y96.558 E9.97361
G1 X102.191 Y96.089 E9.99147
G1 X102.004 Y95.587 E10.00928
G1 X101.892 Y95.062 E10.02714
G1 X101.86 Y94.63 E10.04154
G1 X101.85 Y93.904 E10.06569
G1 X101.85 Y71.866 E10.79868
G1 X101.86 Y71.164 E10.82203
G1 X101.908 Y70.63 E10.83986
G1 X102.034 Y70.108 E10.85772
G1 X102.237 Y69.612 E10.87555
G1 X102.511 Y69.151 E10.89339
G0 F3000 X102.906 Y69.286
G1 F1800 X103.242 Y68.908 E10.91021
G1 X103.817 Y68.469 E10.93427
G1 X104.432 Y68.102 E10.95809
G1 X116.163 Y61.31 E11.40894
G1 X123.024 Y57.368 E11.67212
G1 X123.976 Y56.846 E11.70824
G1 X124.438 Y56.639 E11.72507
G1 X124.926 Y56.507 E11.74189
G1 X125.441 Y56.453 E11.75911
G1 X125.789 Y56.445 E11.77069
G1 X126.294 Y56.473 E11.78751
G1 X126.788 Y56.581 E11.80433
G1 X127.406 Y56.84 E11.82662
G1 X128.468 Y57.426 E11.86696
G1 X146.643 Y67.921 E12.56501
G1 X147.232 Y68.273 E12.58783
G1 X147.644 Y68.566 E12.60464
G1 X148.043 Y68.947 E12.62299
G1 X148.483 Y69.497 E12.64642
G1 X148.606 Y69.691 E12.65406
G1 X148.842 Y70.138 E12.67087
G1 X149.037 Y70.759 E12.69252
G1 X149.065 Y70.895 E12.69714
G1 X149.131 Y71.494 E12.71718
G1 X149.141 Y72.196 E12.74053
G1 X149.141 Y93.576 E13.45163
G1 X149.13 Y94.312 E13.47612
G1 X149.037 Y95.029 E13.50016
G1 X148.989 Y95.224 E13.50684
G1 X148.83 Y95.704 E13.52366
G1 X148.461 Y96.354 E13.54852
G1 X148.14 Y96.759 E13.56571
G1 X147.789 Y97.123 E13.58253
G1 X147.319 Y97.467 E13.6019
G1 X146.489 Y97.965 E13.63409
G1 X128.409 Y108.404 E14.32847
G1 X127.419 Y108.949 E14.36606
G1 X126.958 Y109.157 E14.38288
G1 X126.471 Y109.29 E14.39967
G1 X125.949 Y109.345 E14.41713
G1 X125.598 Y109.353 E14.42881
G1 X125.093 Y109.325 E14.44563
G1 X124.599 Y109.217 E14.46245
G1 X123.986 Y108.959 E14.48457
G1 X122.997 Y108.416 E14.5221
G1 X116.154 Y104.482 E14.78463
G1 X104.408 Y97.682 E15.23604
G1 X103.81 Y97.322 E15.25926
G1 X103.398 Y97.027 E15.27611
G1 X103.039 Y96.672 E15.2929
G1 X102.739 Y96.265 E15.30972
G1 X102.508 Y95.815 E15.32655
G1 X102.35 Y95.335 E15.34335
G1 X102.26 Y94.624 E15.36719
G1 X102.25 Y93.898 E15.39134
G1 X102.25 Y71.871 E16.12396
G1 X102.26 Y71.169 E16.14731
G1 X102.307 Y70.666 E16.16411
G1 X102.433 Y70.176 E16.18094
G1 X102.635 Y69.713 E16.19774
G1 X102.906 Y69.286 E16.21456
G1 F1800 E9.21456
G1 F300 Z0.4
;MESH:25x100_body.obj
G0 F3000 X125.694 Y105.123 Z0.4
;TYPE:WALL-INNER
G1 F300 Z0.2
G1 F1800 E16.21456
G1 X118.256 Y100.847 E16.49992
G1 X106.45 Y94.013 E16.95363
G1 X106.45 Y71.785 E17.69294
G1 X118.255 Y64.952 E18.1466
G1 X125.698 Y60.675 E18.43212
G1 X144.941 Y71.787 E19.17119
G1 X144.941 Y94.011 E19.91036
G1 X125.694 Y105.123 E20.64955
G0 F3000 X125.732 Y105.563
G1 F1800 X125.658 Y105.564 E20.65201
G1 X118.057 Y101.194 E20.94363
G1 X106.05 Y94.243 E21.40507
G1 X106.05 Y71.555 E22.15968
G1 X118.056 Y64.605 E22.62108
G1 X125.66 Y60.235 E22.91278
G1 X125.734 Y60.234 E22.91524
G1 X145.269 Y71.515 E23.66553
G1 X145.341 Y71.61 E23.6695
G1 X145.341 Y94.192 E24.42058
G1 X145.267 Y94.284 E24.42451
G1 X125.732 Y105.563 E25.17477
G0 F3000 X125.833 Y105.963
;TYPE:WALL-OUTER
G1 F1800 X125.564 Y105.964 E25.18371
G1 X125.486 Y105.926 E25.1866
G1 X117.858 Y101.541 E25.47924
G1 X105.65 Y94.473 E25.94842
G1 X105.65 Y71.325 E26.71833
G1 X117.857 Y64.258 E27.18746
G1 X125.492 Y59.87 E27.48036
G1 X125.559 Y59.835 E27.48287
G1 X125.828 Y59.834 E27.49182
G1 X125.906 Y59.872 E27.4947
G1 X145.534 Y71.207 E28.24857
G1 X145.71 Y71.429 E28.258
G1 X145.741 Y71.565 E28.26264
G1 X145.741 Y94.244 E29.01694
G1 X145.71 Y94.371 E29.02129
G1 X145.531 Y94.593 E29.03077
G1 X125.9 Y105.928 E29.78473
G1 X125.833 Y105.963 E29.78724
G0 F3000 X125.633 Y105.963
G0 X125.633 Y105.523
G0 X125.694 Y104.672
;TYPE:SKIN
G1 F1800 X118.451 Y100.509 E30.0651
G1 X106.84 Y93.788 E30.51132
G1 X106.84 Y72.009 E31.23569
G1 X118.45 Y65.289 E31.68186
G1 X125.697 Y61.125 E31.95985
G1 X144.551 Y72.012 E32.68398
G1 X144.551 Y93.786 E33.40819
G1 X125.694 Y104.672 E34.13238
G0 F3000 X125.834 Y104.915
G0 X106.626 Y93.911
G0 X107.019 Y93.442
G1 F1800 X107.593 Y94.016 E34.15938
G1 X107.663 Y94.086
G0 F3000 X107.445 Y94.461
G0 X106.626 Y93.911
G0 X106.56 Y92.877
G0 X107.019 Y92.877
G1 F1800 X108.936 Y94.794 E34.24955
G1 X109.006 Y94.864
G0 F3000 X108.788 Y95.239
G0 X110.048 Y95.968
G0 X110.279 Y95.571
G1 F1800 X107.019 Y92.311 E34.40289
G0 F3000 X107.019 Y91.745
G1 F1800 X111.622 Y96.348 E34.6194
G1 X111.692 Y96.418
G0 F3000 X111.474 Y96.793
G0 X112.734 Y97.523
G0 X112.965 Y97.126
G1 F1800 X107.019 Y91.18 E34.89908
G0 F3000 X107.019 Y90.614
G1 F1800 X114.308 Y97.903 E35.24193
G1 X114.378 Y97.973
G0 F3000 X114.16 Y98.348
G0 X115.421 Y99.078
G0 X115.652 Y98.681
G1 F1800 X107.019 Y90.048 E35.648
G0 F3000 X107.019 Y89.482
G1 F1800 X116.995 Y99.458 E36.11724
G1 X117.065 Y99.528
G0 F3000 X116.847 Y99.903
G0 X118.107 Y100.633
G0 X118.338 Y100.236
G1 F1800 X107.019 Y88.917 E36.64965
G0 F3000 X107.019 Y88.351
G1 F1800 X119.67 Y101.002 E37.24472
G1 X119.74 Y101.072
G0 F3000 X119.524 Y101.447
G0 X120.771 Y102.165
G0 X121 Y101.767
G1 F1800 X107.019 Y87.785 E37.90237
G0 F3000 X107.019 Y87.22
G1 F1800 X122.33 Y102.531 E38.62255
G1 X122.4 Y102.601
G0 F3000 X122.184 Y102.977
G0 X123.431 Y103.694
G0 X123.66 Y103.296
G1 F1800 X107.019 Y86.654 E39.40531
G0 F3000 X107.019 Y86.088
G1 F1800 X124.991 Y104.06 E40.25066
G1 X125.061 Y104.13
G0 F3000 X125.862 Y104.366
G1 F1800 X107.019 Y85.523 E41.13698
G0 F3000 X107.019 Y84.957
G1 F1800 X126.22 Y104.158 E42.04013
G0 F3000 X126.579 Y103.952
G1 F1800 X107.019 Y84.391 E42.9602
G0 F3000 X107.019 Y83.826
G1 F1800 X126.938 Y103.745 E43.89713
G0 F3000 X127.296 Y103.538
G1 F1800 X107.019 Y83.26 E44.85092
G0 F3000 X107.019 Y82.694
G1 F1800 X127.655 Y103.33 E45.82157
G0 F3000 X128.013 Y103.123
G1 F1800 X107.019 Y82.129 E46.80907
G0 F3000 X107.019 Y81.563
G1 F1800 X128.373 Y102.917 E47.81349
G0 F3000 X128.731 Y102.71
G1 F1800 X107.019 Y80.997 E48.83478
G0 F3000 X107.019 Y80.431
G1 F1800 X129.09 Y102.502 E49.87294
G0 F3000 X129.448 Y102.295
G1 F1800 X107.019 Y79.866 E50.92793
G0 F3000 X107.019 Y79.3
G1 F1800 X129.807 Y102.088 E51.99981
G0 F3000 X130.166 Y101.882
G1 F1800 X107.019 Y78.734 E53.08859
G0 F3000 X107.019 Y78.169
G1 F1800 X130.524 Y101.674 E54.1942
G0 F3000 X130.883 Y101.467
G1 F1800 X107.019 Y77.603 E55.31669
G0 F3000 X107.019 Y77.037
G1 F1800 X131.241 Y101.26 E56.45604
G0 F3000 X131.601 Y101.054
G1 F1800 X107.019 Y76.472 E57.6123
G0 F3000 X107.019 Y75.906
G1 F1800 X131.959 Y100.846 E58.7854
G0 F3000 X132.318 Y100.639
G1 F1800 X107.019 Y75.34 E59.97539
G0 F3000 X107.019 Y74.775
G1 F1800 X132.676 Y100.432 E61.18221
G0 F3000 X133.035 Y100.225
G1 F1800 X107.019 Y74.209 E62.40593
G0 F3000 X107.019 Y73.643
G1 F1800 X133.394 Y100.018 E63.64653
G0 F3000 X133.752 Y99.811
G1 F1800 X107.019 Y73.078 E64.90397
G0 F3000 X107.019 Y72.512
G1 F1800 X134.111 Y99.604 E66.17829
G0 F3000 X134.469 Y99.397
G1 F1800 X107.124 Y72.052 E67.46451
G0 F3000 X107.482 Y71.844
G1 F1800 X134.828 Y99.19 E68.75079
G0 F3000 X135.187 Y98.983
G1 F1800 X107.84 Y71.636 E70.03711
G0 F3000 X108.199 Y71.429
G1 F1800 X135.546 Y98.776 E71.32342
G0 F3000 X135.904 Y98.569
G1 F1800 X108.557 Y71.222 E72.60974
G0 F3000 X108.915 Y71.014
G1 F1800 X136.263 Y98.362 E73.89611
G0 F3000 X136.621 Y98.154
G1 F1800 X109.274 Y70.807 E75.18243
G0 F3000 X109.632 Y70.6
G1 F1800 X136.98 Y97.948 E76.46879
G0 F3000 X137.339 Y97.741
G1 F1800 X109.991 Y70.393 E77.75516
G0 F3000 X110.348 Y70.185
G1 F1800 X137.697 Y97.534 E79.04157
G0 F3000 X138.056 Y97.326
G1 F1800 X110.707 Y69.978 E80.32796
G0 F3000 X111.065 Y69.77
G1 F1800 X138.415 Y97.12 E81.61442
G0 F3000 X138.773 Y96.913
G1 F1800 X111.424 Y69.563 E82.90086
G0 F3000 X111.782 Y69.355
G1 F1800 X139.132 Y96.706 E84.18734
G0 F3000 X139.49 Y96.498
G1 F1800 X112.14 Y69.148 E85.4738
G0 F3000 X112.499 Y68.941
G1 F1800 X139.849 Y96.291 E86.76026
G0 F3000 X140.208 Y96.085
G1 F1800 X112.857 Y68.734 E88.04677
G0 F3000 X113.215 Y68.526
G1 F1800 X140.567 Y95.878 E89.33333
G0 F3000 X140.925 Y95.67
G1 F1800 X113.574 Y68.319 E90.61983
G0 F3000 X113.932 Y68.112
G1 F1800 X141.284 Y95.463 E91.90636
G0 F3000 X141.642 Y95.256
G1 F1800 X114.291 Y67.904 E93.19289
G0 F3000 X114.648 Y67.696
G1 F1800 X142.001 Y95.05 E94.47952
G0 F3000 X142.36 Y94.842
G1 F1800 X115.007 Y67.489 E95.76612
G0 F3000 X115.365 Y67.282
G1 F1800 X142.718 Y94.635 E97.05272
G0 F3000 X143.077 Y94.428
G1 F1800 X115.724 Y67.075 E98.33932
G0 F3000 X116.082 Y66.867
G1 F1800 X143.435 Y94.221 E99.62595
G0 F3000 X143.795 Y94.014
G1 F1800 X116.44 Y66.66 E100.91262
G0 F3000 X116.799 Y66.453
G1 F1800 X144.153 Y93.807 E102.19927
G0 F3000 X144.369 Y93.458
G1 F1800 X117.157 Y66.246 E103.47924
G0 F3000 X117.515 Y66.038
G1 F1800 X144.369 Y92.892 E104.74237
G0 F3000 X144.369 Y92.326
G1 F1800 X117.873 Y65.83 E105.98866
G0 F3000 X118.232 Y65.623
G1 F1800 X144.369 Y91.761 E107.21809
G0 F3000 X144.369 Y91.195
G1 F1800 X118.59 Y65.416 E108.43065
G0 F3000 X118.95 Y65.21
G1 F1800 X144.369 Y90.629 E109.62628
G0 F3000 X144.369 Y90.064
G1 F1800 X119.309 Y65.003 E110.80505
G0 F3000 X119.668 Y64.797
G1 F1800 X144.369 Y89.498 E111.96691
G0 F3000 X144.369 Y88.932
G1 F1800 X120.027 Y64.59 E113.11188
G0 F3000 X120.387 Y64.384
G1 F1800 X144.369 Y88.367 E114.23995
G0 F3000 X144.369 Y87.801
G1 F1800 X120.746 Y64.177 E115.35112
G0 F3000 X121.105 Y63.971
G1 F1800 X144.369 Y87.235 E116.44539
G0 F3000 X144.369 Y86.67
G1 F1800 X121.464 Y63.764 E117.5228
G0 F3000 X121.824 Y63.559
G1 F1800 X144.369 Y86.104 E118.58324
G0 F3000 X144.369 Y85.538
G1 F1800 X122.183 Y63.352 E119.6268
G0 F3000 X122.543 Y63.146
G1 F1800 X144.369 Y84.973 E120.65346
G0 F3000 X144.369 Y84.407
G1 F1800 X122.902 Y62.939 E121.66322
G0 F3000 X123.261 Y62.733
G1 F1800 X144.369 Y83.841 E122.65608
G0 F3000 X144.369 Y83.275
G1 F1800 X123.62 Y62.526 E123.63205
G0 F3000 X123.979 Y62.32
G1 F1800 X144.369 Y82.71 E124.59113
G0 F3000 X144.369 Y82.144
G1 F1800 X124.339 Y62.113 E125.5333
G0 F3000 X124.698 Y61.907
G1 F1800 X144.369 Y81.578 E126.45857
G0 F3000 X144.369 Y81.013
G1 F1800 X125.057 Y61.7 E127.36697
G0 F3000 X125.416 Y61.494
G1 F1800 X144.369 Y80.447 E128.25846
G0 F3000 X144.369 Y79.881
G1 F1800 X125.991 Y61.503 E129.1229
G1 X125.921 Y61.433
G0 F3000 X126.139 Y61.057
G0 X127.561 Y61.878
G0 X127.33 Y62.276
G1 F1800 X144.369 Y79.316 E129.92439
G0 F3000 X144.369 Y78.75
G1 F1800 X128.668 Y63.049 E130.66292
G1 X128.598 Y62.979
G0 F3000 X128.816 Y62.603
G0 X130.238 Y63.424
G0 X130.007 Y63.822
G1 F1800 X144.369 Y78.184 E131.33846
G0 F3000 X144.369 Y77.619
G1 F1800 X131.345 Y64.594 E131.95109
G1 X131.275 Y64.524
G0 F3000 X131.493 Y64.149
G0 X132.915 Y64.97
G0 X132.684 Y65.367
G1 F1800 X144.369 Y77.053 E132.50074
G0 F3000 X144.369 Y76.487
G1 F1800 X134.022 Y66.14 E132.98743
G1 X133.952 Y66.07
G0 F3000 X134.17 Y65.695
G0 X135.592 Y66.516
G0 X135.361 Y66.913
G1 F1800 X144.369 Y75.922 E133.41117
G0 F3000 X144.369 Y75.356
G1 F1800 X136.7 Y67.686 E133.77192
G1 X136.63 Y67.616
G0 F3000 X136.848 Y67.241
G0 X138.269 Y68.062
G0 X138.038 Y68.459
G1 F1800 X144.369 Y74.79 E134.06971
G0 F3000 X144.369 Y74.224
G1 F1800 X139.377 Y69.232 E134.30452
G1 X139.307 Y69.162
G0 F3000 X139.525 Y68.787
G0 X140.945 Y69.607
G0 X140.715 Y70.004
G1 F1800 X144.369 Y73.659 E134.47641
