;FLAVOR:Marlin
;TIME:4574
;Filament used: 5.47122m
;Layer height: 0.3
;MINX:81.88
;MINY:84.886
;MINZ:0.2
;MAXX:138.129
;MAXY:135.114
;MAXZ:40.1
;Generated with Cura_SteamEngine 4.12.1
M82 ;absolute extrusion mode
;Sliced at: Fri 07-01-2022 18:18:40
;Basic settings: Layer height: 0.3 Walls: 0.8 Fill: 85
G21 ;metric values
G90 ;absolute positioning
M82 ;set extruder to absolute mode
M107 ;start with the fan off
M117 Start heating ...
M104 S240
M117 Homing X/Y ...
G28 X0 Y0 ;move X/Y to min endstops
M117 Homing Z ...
G28 Z0 ;move Z to min endstops
G1 Z15.0 F100 ;move the platform down 15mm
M117 Heating ...
M109 S240
M117 Start cleaning ...
G92 E0 ;zero the extruded length
G1 F200 E10 ;extrude 10mm of feed stock
G92 E0 ;zero the extruded length again
M117 Intro line ...
G1 Z2.0 F3000 ; Move Z Axis up little to prevent scratching of Heat Bed
G1 X0.1 Y20 Z0.3 F5000.0 ; Move to start position
G1 X0.1 Y200.0 Z0.3 F1500.0 E15 ; Draw the first line
G1 X0.4 Y200.0 Z0.3 F5000.0 ; Move to side a little
G1 X0.4 Y20 Z0.3 F1500.0 E30 ; Draw the second line
G92 E0 ; Reset Extruder
G1 E-1 F500 ; Retract filiment by 1 mm
G1 Z2.0 F3000 ; Move Z Axis up little to prevent scratching of Heat Bed
G1 X5 Y20 Z0.3 F100 ; Move over to prevent blob squish
G1 F100
G92 E0 ; Reset Extruder
M117 Printing...

G92 E0
G92 E0
G1 F1800 E-7
;LAYER_COUNT:134
;LAYER:0
M107
G1 F300 Z0.4
G0 F3000 X94.35 Y86.991 Z0.4
;TYPE:SKIRT
G1 F300 Z0.2
G1 F1800 E0
G1 X94.754 Y86.559 E0.01967
G1 X95.087 Y86.252 E0.03474
G1 X95.721 Y85.775 E0.06113
G1 X96.31 Y85.448 E0.08353
G1 X96.554 Y85.336 E0.09246
G1 X97.084 Y85.137 E0.11129
G1 X97.901 Y84.965 E0.13906
G1 X98.537 Y84.898 E0.16033
G1 X99.087 Y84.886 E0.17863
G1 X120.697 Y84.886 E0.89738
G1 X121.402 Y84.896 E0.92083
G1 X121.911 Y84.936 E0.93781
G1 X122.575 Y85.05 E0.96022
G1 X123.12 Y85.203 E0.97905
G1 X123.672 Y85.439 E0.99901
G1 X123.902 Y85.551 E1.00752
G1 X124.39 Y85.837 E1.02634
G1 X125.064 Y86.382 E1.05517
G1 X125.468 Y86.778 E1.07398
G1 X125.996 Y87.495 E1.1036
G1 X126.349 Y88.089 E1.12658
G1 X137.113 Y106.735 E1.84267
G1 X137.403 Y107.254 E1.86244
G1 X137.689 Y107.873 E1.88512
G1 X137.87 Y108.359 E1.90237
G1 X138.03 Y108.901 E1.92117
G1 X138.116 Y109.528 E1.94221
G1 X138.129 Y110.051 E1.95961
G1 X138.118 Y110.369 E1.9702
G1 X138.058 Y110.931 E1.989
G1 X137.922 Y111.473 E2.00758
G1 X137.678 Y112.166 E2.03202
G1 X137.421 Y112.708 E2.05197
G1 X137.02 Y113.428 E2.07938
G1 X126.325 Y131.952 E2.79081
G1 X125.973 Y132.544 E2.81371
G1 X125.651 Y133.009 E2.83253
G1 X125.246 Y133.441 E2.85222
G1 X124.913 Y133.748 E2.86729
G1 X124.279 Y134.225 E2.89367
G1 X123.69 Y134.552 E2.91608
G1 X123.446 Y134.664 E2.92501
G1 X122.916 Y134.863 E2.94384
G1 X122.099 Y135.035 E2.97161
G1 X121.463 Y135.102 E2.99288
G1 X120.913 Y135.114 E3.01118
G1 X99.303 Y135.114 E3.72993
G1 X98.602 Y135.104 E3.75325
G1 X98.102 Y135.065 E3.76993
G1 X97.605 Y134.987 E3.78666
G1 X97.425 Y134.95 E3.79277
G1 X96.88 Y134.797 E3.8116
G1 X96.328 Y134.561 E3.83157
G1 X96.098 Y134.449 E3.84008
G1 X95.61 Y134.163 E3.85889
G1 X94.936 Y133.618 E3.88772
G1 X94.532 Y133.222 E3.90653
G1 X94.004 Y132.505 E3.93615
G1 X93.651 Y131.911 E3.95913
G1 X82.875 Y113.243 E4.67605
G1 X82.596 Y112.745 E4.69504
G1 X82.311 Y112.128 E4.71764
G1 X82.128 Y111.637 E4.73507
G1 X81.968 Y111.095 E4.75387
G1 X81.88 Y110.422 E4.77644
G1 X81.884 Y109.618 E4.80318
G1 X81.945 Y109.056 E4.82198
G1 X82.074 Y108.542 E4.83961
G1 X82.322 Y107.834 E4.86456
G1 X82.579 Y107.292 E4.88451
G1 X82.98 Y106.572 E4.91192
G1 X93.688 Y88.025 E5.62423
G1 X94.027 Y87.455 E5.64629
G1 X94.35 Y86.991 E5.66509
G0 F3000 X94.679 Y87.221
G1 F1800 X95.025 Y86.853 E5.68189
G1 X95.358 Y86.546 E5.69695
G1 X95.928 Y86.117 E5.72068
G1 X96.477 Y85.811 E5.74159
G1 X96.721 Y85.699 E5.75052
G1 X97.224 Y85.512 E5.76836
G1 X97.972 Y85.358 E5.79377
G1 X98.549 Y85.298 E5.81306
G1 X99.091 Y85.286 E5.83109
G1 X120.691 Y85.286 E6.54951
G1 X121.396 Y85.296 E6.57296
G1 X122.099 Y85.367 E6.59646
G1 X122.495 Y85.442 E6.60987
G1 X123.011 Y85.589 E6.62771
G1 X123.506 Y85.803 E6.64565
G1 X123.725 Y85.909 E6.65374
G1 X124.186 Y86.183 E6.67158
G1 X124.805 Y86.687 E6.69813
G1 X125.335 Y87.246 E6.72375
G1 X125.652 Y87.7 E6.74216
G1 X126.003 Y88.289 E6.76497
G1 X136.764 Y106.93 E7.48086
G1 X137.054 Y107.449 E7.50064
G1 X137.315 Y108.013 E7.52131
G1 X137.496 Y108.499 E7.53856
G1 X137.645 Y109.014 E7.55639
G1 X137.716 Y109.55 E7.57437
G1 X137.718 Y110.355 E7.60115
G1 X137.659 Y110.889 E7.61901
G1 X137.43 Y111.691 E7.64676
G1 X137.229 Y112.196 E7.66483
G1 X137.072 Y112.513 E7.6766
G1 X136.674 Y113.228 E7.70382
G1 X125.981 Y131.748 E8.41509
G1 X125.629 Y132.34 E8.438
G1 X125.322 Y132.779 E8.45582
G1 X124.975 Y133.147 E8.47264
G1 X124.642 Y133.454 E8.48771
G1 X124.072 Y133.883 E8.51143
G1 X123.523 Y134.189 E8.53234
G1 X123.279 Y134.301 E8.54127
G1 X122.776 Y134.488 E8.55912
G1 X122.028 Y134.642 E8.58452
G1 X121.451 Y134.702 E8.60381
G1 X120.909 Y134.714 E8.62184
G1 X99.309 Y134.714 E9.34026
G1 X98.608 Y134.704 E9.36358
G1 X97.909 Y134.634 E9.38694
G1 X97.505 Y134.558 E9.40062
G1 X96.989 Y134.411 E9.41846
G1 X96.494 Y134.197 E9.4364
G1 X96.275 Y134.091 E9.44449
G1 X95.814 Y133.817 E9.46233
G1 X95.195 Y133.313 E9.48888
G1 X94.665 Y132.754 E9.5145
G1 X94.348 Y132.3 E9.53291
G1 X93.997 Y131.711 E9.55572
G1 X83.224 Y113.048 E10.27245
G1 X82.945 Y112.55 E10.29143
G1 X82.686 Y111.988 E10.31201
G1 X82.503 Y111.497 E10.32944
G1 X82.353 Y110.982 E10.34728
G1 X82.28 Y110.403 E10.36669
G1 X82.284 Y109.633 E10.3923
G1 X82.344 Y109.1 E10.41014
G1 X82.566 Y108.32 E10.43712
G1 X82.771 Y107.804 E10.45558
G1 X82.928 Y107.487 E10.46735
G1 X83.326 Y106.772 E10.49457
G1 X94.032 Y88.23 E11.20669
G1 X94.371 Y87.66 E11.22875
G1 X94.679 Y87.221 E11.24659
G0 F3000 X95.007 Y87.452
G1 F1800 X95.629 Y86.84 E11.27561
G1 X96.136 Y86.458 E11.29672
G1 X96.644 Y86.175 E11.31607
G1 X96.888 Y86.063 E11.325
G1 X97.363 Y85.889 E11.34182
G1 X98.043 Y85.752 E11.36489
G1 X98.561 Y85.697 E11.38222
G1 X99.095 Y85.686 E11.39998
G1 X120.685 Y85.686 E12.11807
G1 X121.39 Y85.696 E12.14152
G1 X122.043 Y85.763 E12.16335
G1 X122.414 Y85.834 E12.17592
G1 X123.099 Y86.057 E12.19988
G1 X123.547 Y86.268 E12.21635
G1 X123.981 Y86.527 E12.23316
G1 X124.546 Y86.992 E12.25749
G1 X125.017 Y87.489 E12.28027
G1 X125.308 Y87.905 E12.29715
G1 X125.656 Y88.489 E12.31976
G1 X136.414 Y107.125 E13.03546
G1 X136.704 Y107.644 E13.05524
G1 X136.94 Y108.152 E13.07387
G1 X137.121 Y108.638 E13.09112
G1 X137.259 Y109.124 E13.10792
G1 X137.326 Y109.731 E13.12823
G1 X137.318 Y110.342 E13.14856
G1 X137.261 Y110.844 E13.16536
G1 X137.05 Y111.567 E13.19041
G1 X136.862 Y112.037 E13.20725
G1 X136.722 Y112.319 E13.21772
G1 X136.327 Y113.028 E13.24471
G1 X125.638 Y131.543 E13.95578
G1 X125.286 Y132.135 E13.97869
G1 X124.994 Y132.548 E13.99551
G1 X124.371 Y133.16 E14.02456
G1 X123.864 Y133.542 E14.04567
G1 X123.356 Y133.825 E14.06501
G1 X123.112 Y133.937 E14.07394
G1 X122.637 Y134.111 E14.09077
G1 X121.957 Y134.248 E14.11384
G1 X121.439 Y134.303 E14.13116
G1 X120.905 Y134.314 E14.14893
G1 X99.314 Y134.314 E14.86705
G1 X98.613 Y134.304 E14.89037
G1 X97.965 Y134.238 E14.91203
G1 X97.586 Y134.166 E14.92486
G1 X96.901 Y133.943 E14.94882
G1 X96.453 Y133.732 E14.96529
G1 X96.019 Y133.473 E14.9821
G1 X95.454 Y133.008 E15.00644
G1 X94.983 Y132.511 E15.02921
G1 X94.692 Y132.095 E15.0461
G1 X94.344 Y131.511 E15.06871
G1 X83.573 Y112.852 E15.78529
G1 X83.294 Y112.354 E15.80427
G1 X83.06 Y111.849 E15.82279
G1 X82.877 Y111.358 E15.84021
G1 X82.739 Y110.871 E15.85705
G1 X82.672 Y110.231 E15.87845
G1 X82.683 Y109.649 E15.89781
G1 X82.742 Y109.146 E15.91466
G1 X82.947 Y108.443 E15.93901
G1 X83.138 Y107.963 E15.9562
G1 X83.278 Y107.681 E15.96667
G1 X83.673 Y106.972 E15.99366
G1 X94.376 Y88.434 E16.70562
G1 X94.715 Y87.864 E16.72768
G1 X95.007 Y87.452 E16.74448
G1 F1800 E9.74448
G1 F300 Z0.4
;MESH:25x100_cap v2.obj
G0 F3000 X121.111 Y129.245 Z0.4
;TYPE:WALL-INNER
G1 F300 Z0.2
G1 F1800 E16.74448
G1 X98.888 Y129.245 E17.48362
G1 X87.776 Y109.998 E18.2228
G1 X98.888 Y90.755 E18.96187
G1 X121.112 Y90.755 E19.70105
G1 X132.224 Y110.002 E20.44023
G1 X121.111 Y129.245 E21.17932
G0 F3000 X121.289 Y129.645
G1 F1800 X98.707 Y129.645 E21.9304
G1 X98.615 Y129.571 E21.93433
G1 X87.336 Y110.036 E22.68459
G1 X87.335 Y109.962 E22.68705
G1 X98.616 Y90.427 E23.43734
G1 X98.711 Y90.355 E23.44131
G1 X121.293 Y90.355 E24.19239
G1 X121.385 Y90.429 E24.19631
G1 X132.664 Y109.964 E24.94657
G1 X132.665 Y110.038 E24.94903
G1 X121.383 Y129.573 E25.69934
G1 X121.289 Y129.645 E25.70328
G0 F3000 X121.334 Y130.045
;TYPE:WALL-OUTER
G1 F1800 X98.655 Y130.045 E26.45759
G1 X98.528 Y130.014 E26.46194
G1 X98.306 Y129.835 E26.47142
G1 X86.967 Y110.197 E27.22564
G1 X86.936 Y110.137 E27.22789
G1 X86.935 Y109.868 E27.23684
G1 X86.973 Y109.79 E27.23972
G1 X98.308 Y90.162 E27.99359
G1 X98.53 Y89.986 E28.00302
G1 X98.666 Y89.955 E28.00766
G1 X121.345 Y89.955 E28.76196
G1 X121.472 Y89.986 E28.76631
G1 X121.694 Y90.165 E28.77579
G1 X133.029 Y109.796 E29.52975
G1 X133.064 Y109.862 E29.53223
G1 X133.065 Y110.132 E29.54122
G1 X133.027 Y110.21 E29.5441
G1 X121.691 Y129.839 E30.29802
G1 X121.47 Y130.015 E30.30741
G1 X121.334 Y130.045 E30.31204
G0 F3000 X121.134 Y130.045
G0 X121.134 Y129.605
G0 X120.886 Y128.855
;TYPE:SKIN
G1 F1800 X99.113 Y128.855 E31.03622
G1 X88.227 Y109.998 E31.76041
G1 X99.113 Y91.145 E32.48449
G1 X120.887 Y91.145 E33.2087
G1 X131.773 Y110.002 E33.93289
G1 X120.886 Y128.855 E34.65699
G0 F3000 X121.127 Y128.996
G0 X99.258 Y129.135
G0 X99.258 Y128.674
G1 F1800 X99.158 Y128.573 E34.66171
G0 F3000 X99.824 Y128.674
G1 F1800 X98.385 Y127.235 E34.7294
G1 X98.315 Y127.165
G0 F3000 X97.939 Y127.38
G0 X97.215 Y126.125
G0 X97.613 Y125.897
G1 F1800 X100.39 Y128.674 E34.86002
G0 F3000 X100.955 Y128.674
G1 F1800 X96.84 Y124.558 E35.0536
G1 X96.77 Y124.488
G0 F3000 X96.394 Y124.704
G0 X95.67 Y123.449
G0 X96.068 Y123.221
G1 F1800 X101.521 Y128.674 E35.31009
G0 F3000 X102.087 Y128.674
G1 F1800 X95.296 Y121.883 E35.62952
G1 X95.226 Y121.813
G0 F3000 X94.85 Y122.029
G0 X94.125 Y120.773
G0 X94.523 Y120.544
G1 F1800 X102.652 Y128.674 E36.01191
G0 F3000 X103.218 Y128.674
G1 F1800 X93.751 Y119.206 E36.45723
G1 X93.681 Y119.136
G0 F3000 X93.304 Y119.352
G0 X92.58 Y118.096
G0 X92.978 Y117.868
G1 F1800 X103.784 Y128.674 E36.96551
G0 F3000 X104.349 Y128.674
G1 F1800 X92.206 Y116.53 E37.53671
G1 X92.136 Y116.46
G0 F3000 X91.76 Y116.676
G0 X91.035 Y115.42
G0 X91.433 Y115.192
G1 F1800 X104.915 Y128.674 E38.17086
G0 F3000 X105.481 Y128.674
G1 F1800 X90.66 Y113.854 E38.86797
G1 X90.59 Y113.784
G0 F3000 X90.214 Y113.999
G0 X89.49 Y112.744
G0 X89.888 Y112.516
G1 F1800 X106.046 Y128.674 E39.62799
G0 F3000 X106.612 Y128.674
G1 F1800 X89.116 Y111.178 E40.45095
G1 X89.046 Y111.108
G0 F3000 X88.67 Y111.324
G0 X87.979 Y109.998
G0 X88.459 Y109.955
G1 F1800 X107.178 Y128.674 E41.33143
G0 F3000 X107.743 Y128.674
G1 F1800 X88.666 Y109.596 E42.22878
G0 F3000 X88.873 Y109.238
G1 F1800 X108.309 Y128.674 E43.14299
G0 F3000 X108.875 Y128.674
G1 F1800 X89.079 Y108.878 E44.07413
G0 F3000 X89.287 Y108.52
G1 F1800 X109.441 Y128.674 E45.02212
G0 F3000 X110.006 Y128.674
G1 F1800 X89.494 Y108.161 E45.98696
G0 F3000 X89.701 Y107.803
G1 F1800 X110.572 Y128.674 E46.96867
G0 F3000 X111.138 Y128.674
G1 F1800 X89.908 Y107.444 E47.96726
G0 F3000 X90.115 Y107.085
G1 F1800 X111.703 Y128.674 E48.98272
G0 F3000 X112.269 Y128.674
G1 F1800 X90.322 Y106.727 E50.01504
G0 F3000 X90.529 Y106.368
G1 F1800 X112.835 Y128.674 E51.06425
G0 F3000 X113.4 Y128.674
G1 F1800 X90.736 Y106.01 E52.13029
G0 F3000 X90.943 Y105.651
G1 F1800 X113.966 Y128.674 E53.21322
G0 F3000 X114.532 Y128.674
G1 F1800 X91.15 Y105.292 E54.31304
G0 F3000 X91.357 Y104.933
G1 F1800 X115.097 Y128.674 E55.42972
G0 F3000 X115.663 Y128.674
G1 F1800 X91.564 Y104.575 E56.56326
G0 F3000 X91.771 Y104.216
G1 F1800 X116.229 Y128.674 E57.71369
G0 F3000 X116.794 Y128.674
G1 F1800 X91.979 Y103.858 E58.88094
G0 F3000 X92.185 Y103.499
G1 F1800 X117.36 Y128.674 E60.06509
G0 F3000 X117.926 Y128.674
G1 F1800 X92.392 Y103.14 E61.26613
G0 F3000 X92.599 Y102.782
G1 F1800 X118.492 Y128.674 E62.48404
G0 F3000 X119.057 Y128.674
G1 F1800 X92.807 Y102.423 E63.71878
G0 F3000 X93.014 Y102.065
G1 F1800 X119.623 Y128.674 E64.97039
G0 F3000 X120.189 Y128.674
G1 F1800 X93.22 Y101.705 E66.23892
G0 F3000 X93.427 Y101.347
G1 F1800 X120.754 Y128.674 E67.5243
G0 F3000 X120.98 Y128.334
G1 F1800 X93.635 Y100.988 E68.81055
G0 F3000 X93.842 Y100.63
G1 F1800 X121.187 Y127.975 E70.09678
G0 F3000 X121.393 Y127.616
G1 F1800 X94.049 Y100.271 E71.38298
G0 F3000 X94.256 Y99.913
G1 F1800 X121.601 Y127.258 E72.6692
G0 F3000 X121.808 Y126.899
G1 F1800 X94.463 Y99.554 E73.95543
G0 F3000 X94.67 Y99.195
G1 F1800 X122.015 Y126.541 E75.24168
G0 F3000 X122.222 Y126.182
G1 F1800 X94.877 Y98.837 E76.5279
G0 F3000 X95.084 Y98.478
G1 F1800 X122.429 Y125.823 E77.81413
G0 F3000 X122.636 Y125.464
G1 F1800 X95.291 Y98.12 E79.10033
G0 F3000 X95.498 Y97.761
G1 F1800 X122.843 Y125.106 E80.38655
G0 F3000 X123.05 Y124.747
G1 F1800 X95.705 Y97.402 E81.67278
G0 F3000 X95.912 Y97.044
G1 F1800 X123.257 Y124.389 E82.959
G0 F3000 X123.465 Y124.03
G1 F1800 X96.119 Y96.685 E84.24525
G0 F3000 X96.327 Y96.327
G1 F1800 X123.671 Y123.671 E85.53143
G0 F3000 X123.878 Y123.313
G1 F1800 X96.533 Y95.967 E86.81768
G0 F3000 X96.74 Y95.609
G1 F1800 X124.085 Y122.954 E88.1039
G0 F3000 X124.293 Y122.596
G1 F1800 X96.947 Y95.25 E89.39017
G0 F3000 X97.155 Y94.892
G1 F1800 X124.5 Y122.237 E90.6764
G0 F3000 X124.707 Y121.879
G1 F1800 X97.362 Y94.533 E91.96265
G0 F3000 X97.568 Y94.174
G1 F1800 X124.913 Y121.519 E93.24887
G0 F3000 X125.121 Y121.161
G1 F1800 X97.775 Y93.816 E94.53512
G0 F3000 X97.983 Y93.457
G1 F1800 X125.328 Y120.802 E95.82135
G0 F3000 X125.535 Y120.444
G1 F1800 X98.19 Y93.099 E97.10757
G0 F3000 X98.397 Y92.74
G1 F1800 X125.742 Y120.085 E98.3938
G0 F3000 X125.949 Y119.727
G1 F1800 X98.603 Y92.381 E99.68007
G0 F3000 X98.811 Y92.022
G1 F1800 X126.156 Y119.368 E100.96632
G0 F3000 X126.363 Y119.009
G1 F1800 X99.018 Y91.664 E102.25254
G0 F3000 X99.244 Y91.324
G1 F1800 X126.57 Y118.651 E103.5379
G0 F3000 X126.777 Y118.292
G1 F1800 X99.81 Y91.324 E104.80636
G0 F3000 X100.375 Y91.324
G1 F1800 X126.985 Y117.934 E106.05802
G0 F3000 X127.192 Y117.575
G1 F1800 X100.941 Y91.324 E107.29278
G0 F3000 X101.507 Y91.324
G1 F1800 X127.398 Y117.216 E108.51064
G0 F3000 X127.605 Y116.857
G1 F1800 X102.072 Y91.324 E109.71164
G0 F3000 X102.638 Y91.324
G1 F1800 X127.813 Y116.499 E110.89579
G0 F3000 X128.02 Y116.14
G1 F1800 X103.204 Y91.324 E112.06306
G0 F3000 X103.77 Y91.324
G1 F1800 X128.227 Y115.782 E113.21346
G0 F3000 X128.434 Y115.423
G1 F1800 X104.335 Y91.324 E114.34701
G0 F3000 X104.901 Y91.324
G1 F1800 X128.641 Y115.064 E115.46366
G0 F3000 X128.848 Y114.706
G1 F1800 X105.467 Y91.324 E116.56346
G0 F3000 X106.032 Y91.324
G1 F1800 X129.055 Y114.347 E117.64639
G0 F3000 X129.262 Y113.989
G1 F1800 X106.598 Y91.324 E118.71246
G0 F3000 X107.164 Y91.324
G1 F1800 X129.469 Y113.63 E119.76164
G0 F3000 X129.677 Y113.272
G1 F1800 X107.729 Y91.324 E120.79401
G0 F3000 X108.295 Y91.324
G1 F1800 X129.883 Y112.912 E121.80944
G0 F3000 X130.09 Y112.554
G1 F1800 X108.861 Y91.324 E122.80801
G0 F3000 X109.426 Y91.324
G1 F1800 X130.297 Y112.195 E123.78972
G0 F3000 X130.505 Y111.837
G1 F1800 X109.992 Y91.324 E124.75459
G0 F3000 X110.558 Y91.324
G1 F1800 X130.712 Y111.478 E125.70257
G0 F3000 X130.919 Y111.12
G1 F1800 X111.123 Y91.324 E126.63371
G0 F3000 X111.689 Y91.324
G1 F1800 X131.125 Y110.761 E127.54795
G0 F3000 X131.333 Y110.402
G1 F1800 X112.255 Y91.324 E128.44532
G0 F3000 X112.821 Y91.324
G1 F1800 X131.54 Y110.044 E129.32582
G1 X131.61 Y110.114
G0 F3000 X131.925 Y110.297
G0 X131.281 Y108.591
G0 X130.882 Y108.82
G1 F1800 X113.386 Y91.324 E130.14878
G0 F3000 X113.952 Y91.324
G1 F1800 X130.11 Y107.483 E130.90883
G1 X130.18 Y107.553
G0 F3000 X130.557 Y107.337
G0 X129.737 Y105.916
G0 X129.338 Y106.145
G1 F1800 X114.518 Y91.324 E131.60594
G0 F3000 X115.083 Y91.324
G1 F1800 X128.565 Y104.806 E132.24009
G1 X128.635 Y104.876
G0 F3000 X129.012 Y104.66
G0 X128.191 Y103.239
