;FLAVOR:Marlin
;TIME:2609
;Filament used: 3.20758m
;Layer height: 0.3
;MINX:82.746
;MINY:85.755
;MINZ:0.2
;MAXX:137.254
;MAXY:134.245
;MAXZ:20
;Generated with Cura_SteamEngine 4.12.1
M82 ;absolute extrusion mode
;Sliced at: Thu 06-01-2022 01:28:44
;Basic settings: Layer height: 0.3 Walls: 0.8 Fill: 35
G21 ;metric values
G90 ;absolute positioning
M82 ;set extruder to absolute mode
M107 ;start with the fan off
M117 Start heating ...
M104 S240
M117 Homing X/Y ...
G28 X0 Y0 ;move X/Y to min endstops
M117 Homing Z ...
G28 Z0 ;move Z to min endstops
G1 Z15.0 F100 ;move the platform down 15mm
M117 Heating ...
M109 S240
M117 Start cleaning ...
G92 E0 ;zero the extruded length
G1 F200 E10 ;extrude 10mm of feed stock
G92 E0 ;zero the extruded length again
M117 Intro line ...
G1 Z2.0 F3000 ; Move Z Axis up little to prevent scratching of Heat Bed
G1 X0.1 Y20 Z0.3 F5000.0 ; Move to start position
G1 X0.1 Y200.0 Z0.3 F1500.0 E15 ; Draw the first line
G1 X0.4 Y200.0 Z0.3 F5000.0 ; Move to side a little
G1 X0.4 Y20 Z0.3 F1500.0 E30 ; Draw the second line
G92 E0 ; Reset Extruder
G1 E-1 F500 ; Retract filiment by 1 mm
G1 Z2.0 F3000 ; Move Z Axis up little to prevent scratching of Heat Bed
G1 X5 Y20 Z0.3 F100 ; Move over to prevent blob squish
G1 F100
G92 E0 ; Reset Extruder
M117 Printing...

G92 E0
G92 E0
G1 F1800 E-7
;LAYER_COUNT:67
;LAYER:0
M107
G1 F300 Z0.4
G0 F3000 X95.01 Y87.591 Z0.4
;TYPE:SKIRT
G1 F300 Z0.2
G1 F1800 E0
G1 X95.477 Y87.092 E0.02273
G1 X95.903 Y86.72 E0.04154
G1 X96.394 Y86.396 E0.06111
G1 X96.894 Y86.132 E0.07991
G1 X97.426 Y85.942 E0.0987
G1 X97.842 Y85.846 E0.1129
G1 X98.589 Y85.765 E0.13789
G1 X99.324 Y85.755 E0.16234
G1 X120.723 Y85.755 E0.87408
G1 X121.387 Y85.764 E0.89616
G1 X122.193 Y85.858 E0.92315
G1 X122.42 Y85.908 E0.93088
G1 X122.963 Y86.068 E0.94971
G1 X123.477 Y86.303 E0.96851
G1 X123.929 Y86.591 E0.98633
G1 X124.369 Y86.938 E1.00497
G1 X124.779 Y87.328 E1.02379
G1 X125.253 Y87.964 E1.05017
G1 X125.759 Y88.807 E1.08288
G1 X136.208 Y106.904 E1.77791
G1 X136.751 Y107.89 E1.81535
G1 X136.988 Y108.404 E1.83418
G1 X137.15 Y108.945 E1.85296
G1 X137.246 Y109.728 E1.8792
G1 X137.254 Y110.075 E1.89074
G1 X137.227 Y110.639 E1.90952
G1 X137.121 Y111.195 E1.92835
G1 X136.937 Y111.729 E1.94713
G1 X136.76 Y112.095 E1.96065
G1 X136.163 Y113.178 E2.00179
G1 X125.666 Y131.354 E2.6999
G1 X125.313 Y131.945 E2.72279
G1 X124.914 Y132.499 E2.7455
G1 X124.799 Y132.633 E2.75137
G1 X124.239 Y133.17 E2.77718
G1 X124.06 Y133.311 E2.78476
G1 X123.592 Y133.629 E2.80358
G1 X123.085 Y133.877 E2.82235
G1 X122.658 Y134.026 E2.83739
G1 X122.109 Y134.161 E2.85619
G1 X121.512 Y134.225 E2.87616
G1 X121.255 Y134.237 E2.88472
G1 X120.678 Y134.245 E2.90391
G1 X99.301 Y134.245 E3.61492
G1 X98.574 Y134.234 E3.6391
G1 X98.011 Y134.185 E3.65789
G1 X97.484 Y134.07 E3.67584
G1 X96.946 Y133.896 E3.69464
G1 X96.438 Y133.649 E3.71343
G1 X95.988 Y133.348 E3.73144
G1 X95.631 Y133.062 E3.74665
G1 X95.221 Y132.672 E3.76547
G1 X94.747 Y132.036 E3.79185
G1 X94.241 Y131.193 E3.82455
G1 X83.772 Y113.06 E4.52096
G1 X83.248 Y112.107 E4.55713
G1 X83.011 Y111.594 E4.57593
G1 X82.849 Y111.052 E4.59474
G1 X82.754 Y110.272 E4.62088
G1 X82.746 Y109.925 E4.63242
G1 X82.773 Y109.361 E4.6512
G1 X82.879 Y108.805 E4.67003
G1 X83.063 Y108.271 E4.68881
G1 X83.24 Y107.905 E4.70234
G1 X83.842 Y106.813 E4.74381
G1 X94.337 Y88.641 E5.44177
G1 X94.687 Y88.055 E5.46447
G1 X95.01 Y87.591 E5.48328
G0 F3000 X95.339 Y87.821
G1 F1800 X95.761 Y87.374 E5.50372
G1 X96.166 Y87.023 E5.52155
G1 X96.605 Y86.736 E5.53899
G1 X97.08 Y86.487 E5.55683
G1 X97.785 Y86.266 E5.5814
G1 X97.922 Y86.238 E5.58605
G1 X98.594 Y86.165 E5.60854
G1 X99.329 Y86.155 E5.63298
G1 X120.718 Y86.155 E6.34439
G1 X121.382 Y86.164 E6.36647
G1 X122.107 Y86.248 E6.39075
G1 X122.334 Y86.298 E6.39848
G1 X122.848 Y86.452 E6.41632
G1 X123.333 Y86.681 E6.43416
G1 X123.775 Y86.974 E6.4518
G1 X124.115 Y87.247 E6.4663
G1 X124.502 Y87.618 E6.48413
G1 X124.911 Y88.17 E6.50698
G1 X125.413 Y89.007 E6.53945
G1 X135.857 Y107.097 E7.2342
G1 X136.4 Y108.083 E7.27164
G1 X136.623 Y108.571 E7.28948
G1 X136.771 Y109.087 E7.30734
G1 X136.846 Y109.737 E7.3291
G1 X136.854 Y110.084 E7.34064
G1 X136.826 Y110.62 E7.35849
G1 X136.72 Y111.145 E7.37631
G1 X136.536 Y111.649 E7.39415
G1 X136.409 Y111.902 E7.40357
G1 X135.817 Y112.978 E7.44442
G1 X125.323 Y131.149 E8.14233
G1 X124.97 Y131.74 E8.16523
G1 X124.611 Y132.239 E8.18567
G1 X124.496 Y132.373 E8.19155
G1 X123.992 Y132.856 E8.21476
G1 X123.813 Y132.997 E8.22234
G1 X123.368 Y133.297 E8.24019
G1 X122.69 Y133.595 E8.26483
G1 X122.535 Y133.645 E8.27024
G1 X122.014 Y133.771 E8.28807
G1 X121.481 Y133.826 E8.30589
G1 X121.25 Y133.837 E8.31358
G1 X120.673 Y133.845 E8.33278
G1 X99.308 Y133.845 E9.04338
G1 X98.581 Y133.834 E9.06756
G1 X98.046 Y133.786 E9.08543
G1 X97.58 Y133.682 E9.10131
G1 X97.07 Y133.515 E9.11916
G1 X96.59 Y133.275 E9.13701
G1 X96.067 Y132.903 E9.15835
G1 X95.885 Y132.753 E9.1662
G1 X95.498 Y132.382 E9.18403
G1 X95.089 Y131.83 E9.20688
G1 X94.587 Y130.993 E9.23934
G1 X84.122 Y112.868 E9.93545
G1 X83.598 Y111.915 E9.97162
G1 X83.376 Y111.427 E9.98945
G1 X83.228 Y110.911 E10.00731
G1 X83.154 Y110.263 E10.029
G1 X83.146 Y109.916 E10.04054
G1 X83.174 Y109.38 E10.0584
G1 X83.28 Y108.855 E10.07621
G1 X83.464 Y108.351 E10.09406
G1 X83.591 Y108.098 E10.10347
G1 X84.189 Y107.013 E10.14468
G1 X94.68 Y88.846 E10.84243
G1 X95.03 Y88.26 E10.86513
G1 X95.339 Y87.821 E10.88298
G0 F3000 X95.666 Y88.053
G1 F1800 X96.044 Y87.656 E10.90122
G1 X96.623 Y87.195 E10.92583
G1 X96.816 Y87.075 E10.93339
G1 X97.265 Y86.843 E10.9502
G1 X97.865 Y86.658 E10.97108
G1 X98.002 Y86.63 E10.97574
G1 X98.599 Y86.565 E10.99571
G1 X99.334 Y86.555 E11.02016
G1 X120.712 Y86.555 E11.73119
G1 X121.376 Y86.564 E11.75328
G1 X122.021 Y86.639 E11.77488
G1 X122.248 Y86.689 E11.78261
G1 X122.732 Y86.836 E11.79943
G1 X123.186 Y87.058 E11.81624
G1 X123.678 Y87.406 E11.83628
G1 X123.86 Y87.556 E11.84413
G1 X124.224 Y87.907 E11.86095
G1 X124.568 Y88.377 E11.88032
G1 X125.066 Y89.207 E11.91251
G1 X135.507 Y107.29 E12.60701
G1 X136.05 Y108.276 E12.64445
G1 X136.258 Y108.737 E12.66127
G1 X136.391 Y109.225 E12.6781
G1 X136.446 Y109.746 E12.69552
G1 X136.454 Y110.093 E12.70706
G1 X136.426 Y110.598 E12.72389
G1 X136.318 Y111.092 E12.74071
G1 X136.059 Y111.709 E12.76296
G1 X135.47 Y112.778 E12.80356
G1 X124.979 Y130.944 E13.50128
G1 X124.626 Y131.535 E13.52417
G1 X124.307 Y131.978 E13.54233
G1 X124.192 Y132.112 E13.5482
G1 X123.744 Y132.542 E13.56886
G1 X123.565 Y132.683 E13.57644
G1 X123.145 Y132.963 E13.59323
G1 X122.567 Y133.214 E13.61418
G1 X122.412 Y133.264 E13.6196
G1 X121.68 Y133.409 E13.64442
G1 X121.244 Y133.437 E13.65895
G1 X120.667 Y133.445 E13.67814
G1 X99.314 Y133.445 E14.38835
G1 X98.587 Y133.434 E14.41253
G1 X97.87 Y133.341 E14.43658
G1 X97.675 Y133.293 E14.44326
G1 X97.195 Y133.134 E14.46008
G1 X96.545 Y132.765 E14.48494
G1 X96.14 Y132.444 E14.50212
G1 X95.776 Y132.093 E14.51894
G1 X95.432 Y131.623 E14.53831
G1 X94.934 Y130.793 E14.57051
G1 X84.473 Y112.675 E15.26635
G1 X83.949 Y111.722 E15.30252
G1 X83.741 Y111.261 E15.31934
G1 X83.608 Y110.773 E15.33617
G1 X83.554 Y110.254 E15.35352
G1 X83.546 Y109.907 E15.36506
G1 X83.574 Y109.402 E15.38189
G1 X83.682 Y108.908 E15.39871
G1 X83.941 Y108.291 E15.42096
G1 X84.535 Y107.213 E15.4619
G1 X95.024 Y89.051 E16.15947
G1 X95.374 Y88.465 E16.18217
G1 X95.666 Y88.053 E16.19897
G1 F1800 E9.19897
G1 F300 Z0.4
;MESH:25x50_cap v5.obj
G0 F3000 X121.111 Y129.245 Z0.4
;TYPE:WALL-INNER
G1 F300 Z0.2
G1 F1800 E16.19897
G1 X98.888 Y129.245 E16.93811
G1 X87.776 Y109.998 E17.6773
G1 X98.888 Y90.755 E18.41637
G1 X121.112 Y90.755 E19.15554
G1 X132.224 Y110.002 E19.89473
G1 X121.111 Y129.245 E20.63381
G0 F3000 X121.289 Y129.645
G1 F1800 X98.707 Y129.645 E21.3849
G1 X98.615 Y129.571 E21.38882
G1 X87.336 Y110.036 E22.13908
G1 X87.335 Y109.962 E22.14154
G1 X98.616 Y90.427 E22.89184
G1 X98.711 Y90.355 E22.8958
G1 X121.293 Y90.355 E23.64688
G1 X121.385 Y90.429 E23.65081
G1 X132.664 Y109.964 E24.40107
G1 X132.665 Y110.038 E24.40353
G1 X121.383 Y129.573 E25.15384
G1 X121.289 Y129.645 E25.15777
G0 F3000 X121.334 Y130.045
;TYPE:WALL-OUTER
G1 F1800 X98.655 Y130.045 E25.91208
G1 X98.528 Y130.014 E25.91643
G1 X98.306 Y129.835 E25.92591
G1 X86.967 Y110.197 E26.68014
G1 X86.936 Y110.137 E26.68238
G1 X86.935 Y109.868 E26.69133
G1 X86.973 Y109.79 E26.69422
G1 X98.308 Y90.162 E27.44809
G1 X98.53 Y89.986 E27.45751
G1 X98.666 Y89.955 E27.46215
G1 X121.345 Y89.955 E28.21645
G1 X121.472 Y89.986 E28.2208
G1 X121.694 Y90.165 E28.23029
G1 X133.029 Y109.796 E28.98424
G1 X133.064 Y109.862 E28.98673
G1 X133.065 Y110.132 E28.99571
G1 X133.027 Y110.21 E28.99859
G1 X121.691 Y129.839 E29.75251
G1 X121.47 Y130.015 E29.76191
G1 X121.334 Y130.045 E29.76654
G0 F3000 X121.134 Y130.045
G0 X121.134 Y129.605
G0 X120.886 Y128.855
;TYPE:SKIN
G1 F1800 X99.113 Y128.855 E30.49071
G1 X88.227 Y109.998 E31.2149
G1 X99.113 Y91.145 E31.93898
G1 X120.887 Y91.145 E32.66319
G1 X131.773 Y110.002 E33.38738
G1 X120.886 Y128.855 E34.11148
G0 F3000 X121.127 Y128.996
G0 X99.258 Y129.135
G0 X99.258 Y128.674
G1 F1800 X99.158 Y128.573 E34.11621
G0 F3000 X99.824 Y128.674
G1 F1800 X98.385 Y127.235 E34.18389
G1 X98.315 Y127.165
G0 F3000 X97.939 Y127.38
G0 X97.215 Y126.125
G0 X97.613 Y125.897
G1 F1800 X100.39 Y128.674 E34.31451
G0 F3000 X100.955 Y128.674
G1 F1800 X96.84 Y124.558 E34.5081
G1 X96.77 Y124.488
G0 F3000 X96.394 Y124.704
G0 X95.67 Y123.449
G0 X96.068 Y123.221
G1 F1800 X101.521 Y128.674 E34.76459
G0 F3000 X102.087 Y128.674
G1 F1800 X95.296 Y121.883 E35.08402
G1 X95.226 Y121.813
G0 F3000 X94.85 Y122.029
G0 X94.125 Y120.773
G0 X94.523 Y120.544
G1 F1800 X102.652 Y128.674 E35.4664
G0 F3000 X103.218 Y128.674
G1 F1800 X93.751 Y119.206 E35.91172
G1 X93.681 Y119.136
G0 F3000 X93.304 Y119.352
G0 X92.58 Y118.096
G0 X92.978 Y117.868
G1 F1800 X103.784 Y128.674 E36.42001
G0 F3000 X104.349 Y128.674
G1 F1800 X92.206 Y116.53 E36.9912
G1 X92.136 Y116.46
G0 F3000 X91.76 Y116.676
G0 X91.035 Y115.42
G0 X91.433 Y115.192
G1 F1800 X104.915 Y128.674 E37.62535
G0 F3000 X105.481 Y128.674
G1 F1800 X90.66 Y113.854 E38.32246
G1 X90.59 Y113.784
G0 F3000 X90.214 Y113.999
G0 X89.49 Y112.744
G0 X89.888 Y112.516
G1 F1800 X106.046 Y128.674 E39.08248
G0 F3000 X106.612 Y128.674
G1 F1800 X89.116 Y111.178 E39.90544
G1 X89.046 Y111.108
G0 F3000 X88.67 Y111.324
G0 X87.979 Y109.998
G0 X88.459 Y109.955
G1 F1800 X107.178 Y128.674 E40.78593
G0 F3000 X107.743 Y128.674
G1 F1800 X88.666 Y109.596 E41.68327
G0 F3000 X88.873 Y109.238
G1 F1800 X108.309 Y128.674 E42.59748
G0 F3000 X108.875 Y128.674
G1 F1800 X89.079 Y108.878 E43.52863
G0 F3000 X89.287 Y108.52
G1 F1800 X109.441 Y128.674 E44.47661
G0 F3000 X110.006 Y128.674
G1 F1800 X89.494 Y108.161 E45.44145
G0 F3000 X89.701 Y107.803
G1 F1800 X110.572 Y128.674 E46.42316
G0 F3000 X111.138 Y128.674
G1 F1800 X89.908 Y107.444 E47.42176
G0 F3000 X90.115 Y107.085
G1 F1800 X111.703 Y128.674 E48.43721
G0 F3000 X112.269 Y128.674
G1 F1800 X90.322 Y106.727 E49.46953
G0 F3000 X90.529 Y106.368
G1 F1800 X112.835 Y128.674 E50.51874
G0 F3000 X113.4 Y128.674
G1 F1800 X90.736 Y106.01 E51.58478
G0 F3000 X90.943 Y105.651
G1 F1800 X113.966 Y128.674 E52.66771
G0 F3000 X114.532 Y128.674
G1 F1800 X91.15 Y105.292 E53.76753
G0 F3000 X91.357 Y104.933
G1 F1800 X115.097 Y128.674 E54.88421
G0 F3000 X115.663 Y128.674
G1 F1800 X91.564 Y104.575 E56.01776
G0 F3000 X91.771 Y104.216
G1 F1800 X116.229 Y128.674 E57.16819
G0 F3000 X116.794 Y128.674
G1 F1800 X91.979 Y103.858 E58.33543
G0 F3000 X92.185 Y103.499
G1 F1800 X117.36 Y128.674 E59.51959
G0 F3000 X117.926 Y128.674
G1 F1800 X92.392 Y103.14 E60.72063
G0 F3000 X92.599 Y102.782
G1 F1800 X118.492 Y128.674 E61.93853
G0 F3000 X119.057 Y128.674
G1 F1800 X92.807 Y102.423 E63.17327
G0 F3000 X93.014 Y102.065
G1 F1800 X119.623 Y128.674 E64.42488
G0 F3000 X120.189 Y128.674
G1 F1800 X93.22 Y101.705 E65.69342
G0 F3000 X93.427 Y101.347
G1 F1800 X120.754 Y128.674 E66.9788
G0 F3000 X120.98 Y128.334
G1 F1800 X93.635 Y100.988 E68.26504
G0 F3000 X93.842 Y100.63
G1 F1800 X121.187 Y127.975 E69.55127
G0 F3000 X121.393 Y127.616
G1 F1800 X94.049 Y100.271 E70.83747
G0 F3000 X94.256 Y99.913
G1 F1800 X121.601 Y127.258 E72.1237
G0 F3000 X121.808 Y126.899
G1 F1800 X94.463 Y99.554 E73.40992
G0 F3000 X94.67 Y99.195
G1 F1800 X122.015 Y126.541 E74.69617
G0 F3000 X122.222 Y126.182
G1 F1800 X94.877 Y98.837 E75.98239
G0 F3000 X95.084 Y98.478
G1 F1800 X122.429 Y125.823 E77.26862
G0 F3000 X122.636 Y125.464
G1 F1800 X95.291 Y98.12 E78.55482
G0 F3000 X95.498 Y97.761
G1 F1800 X122.843 Y125.106 E79.84105
G0 F3000 X123.05 Y124.747
G1 F1800 X95.705 Y97.402 E81.12727
G0 F3000 X95.912 Y97.044
G1 F1800 X123.257 Y124.389 E82.4135
G0 F3000 X123.465 Y124.03
G1 F1800 X96.119 Y96.685 E83.69974
G0 F3000 X96.327 Y96.327
G1 F1800 X123.671 Y123.671 E84.98592
G0 F3000 X123.878 Y123.313
G1 F1800 X96.533 Y95.967 E86.27217
G0 F3000 X96.74 Y95.609
G1 F1800 X124.085 Y122.954 E87.5584
G0 F3000 X124.293 Y122.596
G1 F1800 X96.947 Y95.25 E88.84467
G0 F3000 X97.155 Y94.892
G1 F1800 X124.5 Y122.237 E90.13089
G0 F3000 X124.707 Y121.879
G1 F1800 X97.362 Y94.533 E91.41714
G0 F3000 X97.568 Y94.174
G1 F1800 X124.913 Y121.519 E92.70337
G0 F3000 X125.121 Y121.161
G1 F1800 X97.775 Y93.816 E93.98961
G0 F3000 X97.983 Y93.457
G1 F1800 X125.328 Y120.802 E95.27584
G0 F3000 X125.535 Y120.444
G1 F1800 X98.19 Y93.099 E96.56206
G0 F3000 X98.397 Y92.74
G1 F1800 X125.742 Y120.085 E97.84829
G0 F3000 X125.949 Y119.727
G1 F1800 X98.603 Y92.381 E99.13456
G0 F3000 X98.811 Y92.022
G1 F1800 X126.156 Y119.368 E100.42081
G0 F3000 X126.363 Y119.009
G1 F1800 X99.018 Y91.664 E101.70703
G0 F3000 X99.244 Y91.324
G1 F1800 X126.57 Y118.651 E102.99239
G0 F3000 X126.777 Y118.292
G1 F1800 X99.81 Y91.324 E104.26086
G0 F3000 X100.375 Y91.324
G1 F1800 X126.985 Y117.934 E105.51251
G0 F3000 X127.192 Y117.575
G1 F1800 X100.941 Y91.324 E106.74728
G0 F3000 X101.507 Y91.324
G1 F1800 X127.398 Y117.216 E107.96513
G0 F3000 X127.605 Y116.857
G1 F1800 X102.072 Y91.324 E109.16613
G0 F3000 X102.638 Y91.324
G1 F1800 X127.813 Y116.499 E110.35028
G0 F3000 X128.02 Y116.14
G1 F1800 X103.204 Y91.324 E111.51755
G0 F3000 X103.77 Y91.324
G1 F1800 X128.227 Y115.782 E112.66796
G0 F3000 X128.434 Y115.423
G1 F1800 X104.335 Y91.324 E113.8015
G0 F3000 X104.901 Y91.324
G1 F1800 X128.641 Y115.064 E114.91816
G0 F3000 X128.848 Y114.706
G1 F1800 X105.467 Y91.324 E116.01795
G0 F3000 X106.032 Y91.324
G1 F1800 X129.055 Y114.347 E117.10088
G0 F3000 X129.262 Y113.989
G1 F1800 X106.598 Y91.324 E118.16695
G0 F3000 X107.164 Y91.324
G1 F1800 X129.469 Y113.63 E119.21613
G0 F3000 X129.677 Y113.272
G1 F1800 X107.729 Y91.324 E120.2485
G0 F3000 X108.295 Y91.324
G1 F1800 X129.883 Y112.912 E121.26393
G0 F3000 X130.09 Y112.554
G1 F1800 X108.861 Y91.324 E122.2625
G0 F3000 X109.426 Y91.324
G1 F1800 X130.297 Y112.195 E123.24421
G0 F3000 X130.505 Y111.837
G1 F1800 X109.992 Y91.324 E124.20908
G0 F3000 X110.558 Y91.324
G1 F1800 X130.712 Y111.478 E125.15706
G0 F3000 X130.919 Y111.12
G1 F1800 X111.123 Y91.324 E126.08821
G0 F3000 X111.689 Y91.324
G1 F1800 X131.125 Y110.761 E127.00244
G0 F3000 X131.333 Y110.402
G1 F1800 X112.255 Y91.324 E127.89981
G0 F3000 X112.821 Y91.324
G1 F1800 X131.54 Y110.044 E128.78032
G1 X131.61 Y110.114
G0 F3000 X131.925 Y110.297
G0 X131.281 Y108.591
G0 X130.882 Y108.82
G1 F1800 X113.386 Y91.324 E129.60328
G0 F3000 X113.952 Y91.324
G1 F1800 X130.11 Y107.483 E130.36332
G1 X130.18 Y107.553
G0 F3000 X130.557 Y107.337
G0 X129.737 Y105.916
G0 X129.338 Y106.145
G1 F1800 X114.518 Y91.324 E131.06043
G0 F3000 X115.083 Y91.324
G1 F1800 X128.565 Y104.806 E131.69459
G1 X128.635 Y104.876
G0 F3000 X129.012 Y104.66
G0 X128.191 Y103.239
G0 X127.793 Y103.468
G1 F1800 X115.649 Y91.324 E132.2658
G0 F3000 X116.215 Y91.324
G1 F1800 X127.021 Y102.13 E132.77408
G1 X127.091 Y102.2
G0 F3000 X127.467 Y101.984
G0 X126.647 Y100.563
G0 X126.248 Y100.792
G1 F1800 X116.78 Y91.324 E133.21943
G0 F3000 X117.346 Y91.324
G1 F1800 X125.476 Y99.454 E133.60184
G1 X125.546 Y99.524
G0 F3000 X125.922 Y99.308
G0 X125.102 Y97.887
G0 X124.703 Y98.116
G1 F1800 X117.912 Y91.324 E133.92129
