;FLAVOR:Marlin
;TIME:5586
;Filament used: 7.27216m
;Layer height: 0.3
;MINX:78.334
;MINY:95
;MINZ:0.2
;MAXX:132.841
;MAXY:143.49
;MAXZ:47.9
;Generated with Cura_SteamEngine 4.12.1
M82 ;absolute extrusion mode
;Sliced at: Thu 06-01-2022 01:44:26
;Basic settings: Layer height: 0.3 Walls: 0.8 Fill: 15
G21 ;metric values
G90 ;absolute positioning
M82 ;set extruder to absolute mode
M107 ;start with the fan off
M117 Start heating ...
M104 S240
M117 Homing X/Y ...
G28 X0 Y0 ;move X/Y to min endstops
M117 Homing Z ...
G28 Z0 ;move Z to min endstops
G1 Z15.0 F100 ;move the platform down 15mm
M117 Heating ...
M109 S240
M117 Start cleaning ...
G92 E0 ;zero the extruded length
G1 F200 E10 ;extrude 10mm of feed stock
G92 E0 ;zero the extruded length again
M117 Intro line ...
G1 Z2.0 F3000 ; Move Z Axis up little to prevent scratching of Heat Bed
G1 X0.1 Y20 Z0.3 F5000.0 ; Move to start position
G1 X0.1 Y200.0 Z0.3 F1500.0 E15 ; Draw the first line
G1 X0.4 Y200.0 Z0.3 F5000.0 ; Move to side a little
G1 X0.4 Y20 Z0.3 F1500.0 E30 ; Draw the second line
G92 E0 ; Reset Extruder
G1 E-1 F500 ; Retract filiment by 1 mm
G1 Z2.0 F3000 ; Move Z Axis up little to prevent scratching of Heat Bed
G1 X5 Y20 Z0.3 F100 ; Move over to prevent blob squish
G1 F100
G92 E0 ; Reset Extruder
M117 Printing...

G92 E0
G92 E0
G1 F1800 E-7
;LAYER_COUNT:160
;LAYER:0
M107
G1 F300 Z0.4
G0 F3000 X91.352 Y96.072 Z0.4
;TYPE:SKIRT
G1 F300 Z0.2
G1 F1800 E0
G1 X91.527 Y95.934 E0.00741
G1 X91.995 Y95.616 E0.02623
G1 X92.502 Y95.368 E0.045
G1 X92.937 Y95.217 E0.06032
G1 X93.486 Y95.083 E0.07911
G1 X94.075 Y95.02 E0.09882
G1 X94.332 Y95.008 E0.10737
G1 X94.909 Y95 E0.12657
G1 X116.287 Y95 E0.8376
G1 X117.013 Y95.011 E0.86175
G1 X117.576 Y95.06 E0.88055
G1 X118.099 Y95.174 E0.89835
G1 X118.638 Y95.347 E0.91718
G1 X119.146 Y95.594 E0.93597
G1 X119.6 Y95.897 E0.95412
G1 X119.954 Y96.181 E0.96922
G1 X120.364 Y96.57 E0.98801
G1 X120.841 Y97.209 E1.01454
G1 X121.371 Y98.093 E1.04882
G1 X131.763 Y116.093 E1.74011
G1 X132.338 Y117.137 E1.77975
G1 X132.575 Y117.65 E1.79855
G1 X132.737 Y118.192 E1.81736
G1 X132.833 Y118.974 E1.84357
G1 X132.841 Y119.319 E1.85505
G1 X132.814 Y119.884 E1.87386
G1 X132.708 Y120.439 E1.89265
G1 X132.524 Y120.974 E1.91147
G1 X132.348 Y121.338 E1.92492
G1 X131.757 Y122.411 E1.96566
G1 X121.213 Y140.671 E2.66697
G1 X120.909 Y141.18 E2.68669
G1 X120.659 Y141.553 E2.70162
G1 X120.298 Y141.988 E2.72043
G1 X119.921 Y142.334 E2.73745
G1 X119.662 Y142.543 E2.74851
G1 X119.198 Y142.866 E2.76732
G1 X118.693 Y143.12 E2.78612
G1 X118.098 Y143.316 E2.80696
G1 X117.893 Y143.366 E2.81397
G1 X117.336 Y143.461 E2.83277
G1 X116.999 Y143.48 E2.84399
G1 X116.265 Y143.49 E2.86841
G1 X94.888 Y143.49 E3.57941
G1 X94.161 Y143.479 E3.60359
G1 X93.598 Y143.43 E3.62239
G1 X93.071 Y143.315 E3.64033
G1 X92.533 Y143.141 E3.65914
G1 X92.025 Y142.894 E3.67792
G1 X91.573 Y142.591 E3.69602
G1 X91.227 Y142.315 E3.71074
G1 X90.816 Y141.927 E3.72954
G1 X90.332 Y141.28 E3.75642
G1 X89.838 Y140.457 E3.78834
G1 X79.377 Y122.335 E4.4843
G1 X78.836 Y121.351 E4.52165
G1 X78.599 Y120.838 E4.54044
G1 X78.437 Y120.296 E4.55926
G1 X78.342 Y119.517 E4.58536
G1 X78.334 Y119.172 E4.59684
G1 X78.361 Y118.607 E4.61565
G1 X78.467 Y118.052 E4.63444
G1 X78.651 Y117.517 E4.65326
G1 X78.828 Y117.151 E4.66678
G1 X79.439 Y116.043 E4.70887
G1 X89.932 Y97.871 E5.40679
G1 X90.272 Y97.302 E5.42884
G1 X90.692 Y96.725 E5.45258
G1 X90.815 Y96.584 E5.4588
G1 X91.352 Y96.072 E5.48348
G0 F3000 X91.6 Y96.386
G1 F1800 X91.775 Y96.248 E5.49089
G1 X92.22 Y95.948 E5.50874
G1 X92.906 Y95.647 E5.53366
G1 X93.059 Y95.598 E5.539
G1 X93.58 Y95.472 E5.55683
G1 X94.106 Y95.419 E5.57441
G1 X94.337 Y95.408 E5.5821
G1 X94.914 Y95.4 E5.6013
G1 X116.281 Y95.4 E6.31197
G1 X117.007 Y95.411 E6.33612
G1 X117.541 Y95.459 E6.35395
G1 X118.004 Y95.562 E6.36972
G1 X118.514 Y95.728 E6.38756
G1 X118.994 Y95.968 E6.40541
G1 X119.519 Y96.341 E6.42683
G1 X119.7 Y96.49 E6.43463
G1 X120.088 Y96.86 E6.45246
G1 X120.498 Y97.415 E6.47541
G1 X121.025 Y98.293 E6.50947
G1 X131.412 Y116.286 E7.20048
G1 X131.987 Y117.33 E7.24012
G1 X132.21 Y117.818 E7.25797
G1 X132.358 Y118.333 E7.27579
G1 X132.433 Y118.984 E7.29758
G1 X132.441 Y119.329 E7.30906
G1 X132.413 Y119.864 E7.32688
G1 X132.307 Y120.39 E7.34473
G1 X132.123 Y120.894 E7.36257
G1 X131.997 Y121.146 E7.37194
G1 X131.411 Y122.211 E7.41237
G1 X120.87 Y140.466 E8.11349
G1 X120.566 Y140.975 E8.13321
G1 X120.334 Y141.319 E8.14701
G1 X119.99 Y141.731 E8.16486
G1 X119.411 Y142.232 E8.19033
G1 X118.969 Y142.536 E8.20817
G1 X118.488 Y142.772 E8.22599
G1 X118.003 Y142.927 E8.24293
G1 X117.798 Y142.977 E8.24994
G1 X117.269 Y143.065 E8.26778
G1 X116.994 Y143.08 E8.27694
G1 X116.26 Y143.09 E8.30136
G1 X94.895 Y143.09 E9.01196
G1 X94.168 Y143.079 E9.03614
G1 X93.633 Y143.031 E9.05401
G1 X93.167 Y142.927 E9.06989
G1 X92.657 Y142.76 E9.08774
G1 X92.177 Y142.52 E9.10559
G1 X91.667 Y142.158 E9.12639
G1 X91.48 Y142.005 E9.13442
G1 X91.092 Y141.636 E9.15223
G1 X90.674 Y141.074 E9.17553
G1 X90.184 Y140.257 E9.20721
G1 X79.727 Y122.142 E9.9029
G1 X79.186 Y121.158 E9.94025
G1 X78.964 Y120.671 E9.95805
G1 X78.816 Y120.155 E9.9759
G1 X78.742 Y119.507 E9.9976
G1 X78.734 Y119.162 E10.00908
G1 X78.762 Y118.627 E10.02689
G1 X78.868 Y118.101 E10.04474
G1 X79.052 Y117.597 E10.06259
G1 X79.179 Y117.344 E10.072
G1 X79.785 Y116.243 E10.1138
G1 X90.276 Y98.076 E10.81155
G1 X90.616 Y97.507 E10.8336
G1 X90.993 Y96.987 E10.85496
G1 X91.116 Y96.846 E10.86118
G1 X91.6 Y96.386 E10.88339
G0 F3000 X91.848 Y96.7
G1 F1800 X92.023 Y96.562 E10.8908
G1 X92.443 Y96.282 E10.90759
G1 X93.028 Y96.027 E10.92882
G1 X93.181 Y95.978 E10.93416
G1 X93.907 Y95.836 E10.95877
G1 X94.343 Y95.808 E10.9733
G1 X94.92 Y95.8 E10.99249
G1 X116.274 Y95.8 E11.70273
G1 X117 Y95.811 E11.72688
G1 X117.713 Y95.903 E11.75079
G1 X117.909 Y95.951 E11.7575
G1 X118.389 Y96.11 E11.77432
G1 X119.043 Y96.48 E11.79931
G1 X119.446 Y96.798 E11.81638
G1 X119.81 Y97.15 E11.83323
G1 X120.155 Y97.621 E11.85264
G1 X120.678 Y98.493 E11.88646
G1 X131.062 Y116.479 E12.57722
G1 X131.637 Y117.523 E12.61686
G1 X131.845 Y117.984 E12.63368
G1 X131.978 Y118.472 E12.65051
G1 X132.033 Y118.993 E12.66793
G1 X132.041 Y119.338 E12.67941
G1 X132.013 Y119.843 E12.69623
G1 X131.906 Y120.337 E12.71304
G1 X131.646 Y120.953 E12.73528
G1 X131.064 Y122.011 E12.77544
G1 X120.526 Y140.261 E13.47637
G1 X120.222 Y140.77 E13.49609
G1 X120.009 Y141.086 E13.50876
G1 X119.683 Y141.473 E13.52559
G1 X119.16 Y141.92 E13.54847
G1 X118.742 Y142.206 E13.56532
G1 X118.285 Y142.422 E13.58213
G1 X117.703 Y142.589 E13.60227
G1 X116.989 Y142.68 E13.62621
G1 X116.255 Y142.69 E13.65063
G1 X94.901 Y142.69 E14.36086
G1 X94.174 Y142.679 E14.38504
G1 X93.457 Y142.586 E14.40909
G1 X93.262 Y142.538 E14.41577
G1 X92.782 Y142.379 E14.43259
G1 X92.128 Y142.006 E14.45763
G1 X91.734 Y141.696 E14.47431
G1 X91.369 Y141.346 E14.49112
G1 X91.017 Y140.868 E14.51087
G1 X90.531 Y140.057 E14.54232
G1 X80.078 Y121.95 E15.23771
G1 X79.537 Y120.966 E15.27505
G1 X79.329 Y120.505 E15.29188
G1 X79.196 Y120.017 E15.3087
G1 X79.142 Y119.498 E15.32605
G1 X79.134 Y119.153 E15.33753
G1 X79.162 Y118.648 E15.35435
G1 X79.269 Y118.154 E15.37116
G1 X79.529 Y117.536 E15.39346
G1 X80.132 Y116.443 E15.43498
G1 X90.619 Y98.282 E16.13249
G1 X90.959 Y97.713 E16.15454
G1 X91.295 Y97.25 E16.17357
G1 X91.418 Y97.109 E16.17979
G1 X91.848 Y96.7 E16.19953
G1 F1800 E9.19953
G1 F300 Z0.4
;MESH:25x50_body v5.obj
G0 F3000 X116.7 Y138.49 Z0.4
;TYPE:WALL-INNER
G1 F300 Z0.2
G1 F1800 E16.19953
G1 X94.475 Y138.49 E16.93874
G1 X83.364 Y119.243 E17.67791
G1 X94.476 Y100 E18.41698
G1 X116.7 Y100 E19.15615
G1 X127.811 Y119.247 E19.89532
G1 X116.7 Y138.49 E20.63437
G0 F3000 X116.877 Y138.89
G1 F1800 X94.294 Y138.89 E21.38549
G1 X94.201 Y138.815 E21.38946
G1 X82.924 Y119.281 E22.13966
G1 X82.923 Y119.207 E22.14212
G1 X94.204 Y99.672 E22.89241
G1 X94.298 Y99.6 E22.89635
G1 X116.881 Y99.6 E23.64746
G1 X116.973 Y99.674 E23.65139
G1 X128.251 Y119.209 E24.40163
G1 X128.252 Y119.283 E24.40409
G1 X116.973 Y138.817 E25.15432
G1 X116.877 Y138.89 E25.15834
G0 F3000 X116.922 Y139.29
;TYPE:WALL-OUTER
G1 F1800 X94.242 Y139.29 E25.91268
G1 X94.114 Y139.259 E25.91706
G1 X93.893 Y139.081 E25.92649
G1 X82.555 Y119.442 E26.68073
G1 X82.524 Y119.382 E26.68298
G1 X82.523 Y119.113 E26.69192
G1 X82.561 Y119.035 E26.69481
G1 X93.896 Y99.406 E27.44871
G1 X94.117 Y99.23 E27.4581
G1 X94.253 Y99.2 E27.46274
G1 X116.933 Y99.2 E28.21708
G1 X117.06 Y99.231 E28.22142
G1 X117.282 Y99.41 E28.23091
G1 X128.616 Y119.041 E28.98485
G1 X128.651 Y119.107 E28.98733
G1 X128.652 Y119.377 E28.99631
G1 X128.614 Y119.455 E28.9992
G1 X117.28 Y139.084 E29.75308
G1 X117.058 Y139.259 E29.76248
G1 X116.922 Y139.29 E29.76712
G0 F3000 X116.722 Y139.29
G0 X116.722 Y138.85
G0 X116.475 Y138.1
;TYPE:SKIN
G1 F1800 X94.7 Y138.1 E30.49136
G1 X83.815 Y119.243 E31.21554
G1 X94.701 Y100.39 E31.93962
G1 X116.475 Y100.39 E32.66382
G1 X127.36 Y119.247 E33.388
G1 X116.475 Y138.1 E34.11206
G0 F3000 X116.716 Y138.241
G0 X94.926 Y138.38
G0 X94.926 Y137.919
G1 F1800 X94.632 Y137.624 E34.12592
G0 F3000 X95.492 Y137.919
G1 F1800 X93.86 Y136.287 E34.20268
G1 X93.79 Y136.217
G0 F3000 X93.415 Y136.432
G0 X92.69 Y135.177
G0 X93.088 Y134.949
G1 F1800 X96.058 Y137.919 E34.34238
G0 F3000 X96.624 Y137.919
G1 F1800 X92.316 Y133.611 E34.54502
G1 X92.246 Y133.541
G0 F3000 X91.87 Y133.756
G0 X91.146 Y132.501
G0 X91.544 Y132.273
G1 F1800 X97.189 Y137.919 E34.81056
G0 F3000 X97.755 Y137.919
G1 F1800 X90.772 Y130.935 E35.13904
G1 X90.702 Y130.865
G0 F3000 X90.326 Y131.081
G0 X89.601 Y129.825
G0 X89.999 Y129.597
G1 F1800 X98.321 Y137.919 E35.53049
G0 F3000 X98.886 Y137.919
G1 F1800 X89.226 Y128.259 E35.98486
G1 X89.156 Y128.189
G0 F3000 X88.781 Y128.404
G0 X88.056 Y127.149
G0 X88.454 Y126.921
G1 F1800 X99.452 Y137.919 E36.50217
G0 F3000 X100.018 Y137.919
G1 F1800 X87.682 Y125.583 E37.08242
G1 X87.612 Y125.513
G0 F3000 X87.236 Y125.728
G0 X86.512 Y124.473
G0 X86.91 Y124.245
G1 F1800 X100.583 Y137.919 E37.72558
G0 F3000 X101.149 Y137.919
G1 F1800 X86.138 Y122.907 E38.43168
G1 X86.068 Y122.837
G0 F3000 X85.692 Y123.053
G0 X84.968 Y121.799
G0 X85.366 Y121.57
G1 F1800 X101.715 Y137.919 E39.20068
G0 F3000 X102.28 Y137.919
G1 F1800 X84.594 Y120.232 E40.0326
G1 X84.524 Y120.162
G0 F3000 X84.148 Y120.378
G0 X83.567 Y119.243
G0 X84.076 Y119.148
G1 F1800 X102.846 Y137.919 E40.91551
G0 F3000 X103.412 Y137.919
G1 F1800 X84.282 Y118.789 E41.81533
G0 F3000 X84.49 Y118.431
G1 F1800 X103.977 Y137.919 E42.73196
G0 F3000 X104.543 Y137.919
G1 F1800 X84.697 Y118.072 E43.66548
G0 F3000 X84.904 Y117.714
G1 F1800 X105.109 Y137.919 E44.61586
G0 F3000 X105.674 Y137.919
G1 F1800 X85.111 Y117.355 E45.5831
G0 F3000 X85.318 Y116.997
G1 F1800 X106.24 Y137.919 E46.56721
G0 F3000 X106.806 Y137.919
G1 F1800 X85.525 Y116.637 E47.56823
G0 F3000 X85.732 Y116.279
G1 F1800 X107.372 Y137.919 E48.5861
G0 F3000 X107.937 Y137.919
G1 F1800 X85.939 Y115.92 E49.62085
G0 F3000 X86.146 Y115.562
G1 F1800 X108.503 Y137.919 E50.67245
G0 F3000 X109.069 Y137.919
G1 F1800 X86.354 Y115.203 E51.74092
G0 F3000 X86.561 Y114.845
G1 F1800 X109.634 Y137.919 E52.82623
G0 F3000 X110.2 Y137.919
G1 F1800 X86.767 Y114.486 E53.92844
G0 F3000 X86.974 Y114.127
G1 F1800 X110.766 Y137.919 E55.04754
G0 F3000 X111.331 Y137.919
G1 F1800 X87.182 Y113.769 E56.18346
G0 F3000 X87.389 Y113.41
G1 F1800 X111.897 Y137.919 E57.33627
G0 F3000 X112.463 Y137.919
G1 F1800 X87.596 Y113.052 E58.50594
G0 F3000 X87.803 Y112.693
G1 F1800 X113.028 Y137.919 E59.69247
G0 F3000 X113.594 Y137.919
G1 F1800 X88.01 Y112.334 E60.89588
G0 F3000 X88.217 Y111.976
G1 F1800 X114.16 Y137.919 E62.11616
G0 F3000 X114.725 Y137.919
G1 F1800 X88.424 Y111.617 E63.3533
G0 F3000 X88.631 Y111.259
G1 F1800 X115.291 Y137.919 E64.60731
G0 F3000 X115.857 Y137.919
G1 F1800 X88.838 Y110.9 E65.8782
G0 F3000 X89.045 Y110.542
G1 F1800 X116.391 Y137.887 E67.16445
G0 F3000 X116.598 Y137.528
G1 F1800 X89.252 Y110.182 E68.45072
G0 F3000 X89.459 Y109.824
G1 F1800 X116.804 Y137.169 E69.73694
G0 F3000 X117.012 Y136.811
G1 F1800 X89.666 Y109.465 E71.02322
G0 F3000 X89.873 Y109.107
G1 F1800 X117.219 Y136.452 E72.30946
G0 F3000 X117.426 Y136.094
G1 F1800 X90.081 Y108.748 E73.59571
G0 F3000 X90.288 Y108.39
G1 F1800 X117.633 Y135.735 E74.88194
G0 F3000 X117.84 Y135.376
G1 F1800 X90.494 Y108.031 E76.16819
G0 F3000 X90.702 Y107.672
G1 F1800 X118.047 Y135.017 E77.45441
G0 F3000 X118.254 Y134.659
G1 F1800 X90.909 Y107.314 E78.74064
G0 F3000 X91.116 Y106.955
G1 F1800 X118.461 Y134.3 E80.02686
G0 F3000 X118.668 Y133.942
G1 F1800 X91.323 Y106.597 E81.31309
G0 F3000 X91.53 Y106.238
G1 F1800 X118.875 Y133.583 E82.59931
G0 F3000 X119.082 Y133.224
G1 F1800 X91.737 Y105.879 E83.88554
G0 F3000 X91.944 Y105.52
G1 F1800 X119.289 Y132.866 E85.17178
G0 F3000 X119.496 Y132.507
G1 F1800 X92.151 Y105.162 E86.45801
G0 F3000 X92.358 Y104.803
G1 F1800 X119.703 Y132.149 E87.74426
G0 F3000 X119.91 Y131.789
G1 F1800 X92.565 Y104.445 E89.03046
G0 F3000 X92.773 Y104.086
G1 F1800 X120.117 Y131.431 E90.31666
G0 F3000 X120.324 Y131.072
G1 F1800 X92.979 Y103.727 E91.60289
G0 F3000 X93.186 Y103.369
G1 F1800 X120.532 Y130.714 E92.88913
G0 F3000 X120.739 Y130.355
G1 F1800 X93.393 Y103.01 E94.17538
G0 F3000 X93.601 Y102.652
G1 F1800 X120.945 Y129.996 E95.46156
G0 F3000 X121.152 Y129.638
G1 F1800 X93.808 Y102.293 E96.74776
G0 F3000 X94.015 Y101.935
G1 F1800 X121.36 Y129.279 E98.03396
G0 F3000 X121.567 Y128.921
G1 F1800 X94.221 Y101.575 E99.32024
G0 F3000 X94.429 Y101.217
G1 F1800 X121.774 Y128.562 E100.60646
G0 F3000 X121.981 Y128.204
G1 F1800 X94.636 Y100.858 E101.89271
G0 F3000 X94.913 Y100.57
G1 F1800 X122.188 Y127.844 E103.17562
G0 F3000 X122.395 Y127.486
G1 F1800 X95.479 Y100.57 E104.44166
G0 F3000 X96.044 Y100.57
G1 F1800 X122.602 Y127.127 E105.69085
G0 F3000 X122.809 Y126.769
G1 F1800 X96.61 Y100.57 E106.92317
G0 F3000 X97.176 Y100.57
G1 F1800 X123.016 Y126.41 E108.1386
G0 F3000 X123.223 Y126.051
G1 F1800 X97.741 Y100.57 E109.33717
G0 F3000 X98.307 Y100.57
G1 F1800 X123.43 Y125.693 E110.51888
G0 F3000 X123.637 Y125.334
G1 F1800 X98.873 Y100.57 E111.68371
G0 F3000 X99.439 Y100.57
G1 F1800 X123.844 Y124.976 E112.83167
G0 F3000 X124.051 Y124.617
G1 F1800 X100.004 Y100.57 E113.96276
G0 F3000 X100.57 Y100.57
G1 F1800 X124.258 Y124.258 E115.07697
G0 F3000 X124.465 Y123.899
G1 F1800 X101.136 Y100.57 E116.1743
G0 F3000 X101.701 Y100.57
G1 F1800 X124.672 Y123.541 E117.25478
G0 F3000 X124.88 Y123.182
G1 F1800 X102.267 Y100.57 E118.31841
G0 F3000 X102.833 Y100.57
G1 F1800 X125.087 Y122.824 E119.36517
G0 F3000 X125.293 Y122.465
G1 F1800 X103.398 Y100.57 E120.39504
G0 F3000 X103.964 Y100.57
G1 F1800 X125.5 Y122.106 E121.40803
G0 F3000 X125.708 Y121.748
G1 F1800 X104.53 Y100.57 E122.40418
G0 F3000 X105.095 Y100.57
G1 F1800 X125.915 Y121.389 E123.38346
G0 F3000 X126.122 Y121.031
G1 F1800 X105.661 Y100.57 E124.34588
G0 F3000 X106.227 Y100.57
G1 F1800 X126.328 Y120.672 E125.2914
G0 F3000 X126.536 Y120.313
G1 F1800 X106.792 Y100.57 E126.22007
G0 F3000 X107.358 Y100.57
G1 F1800 X126.743 Y119.955 E127.13188
G0 F3000 X126.95 Y119.596
G1 F1800 X107.924 Y100.57 E128.02681
G0 F3000 X108.489 Y100.57
G1 F1800 X127.13 Y119.21 E128.9036
G1 X127.2 Y119.28
G0 F3000 X127.547 Y119.482
G0 X126.756 Y117.643
G0 X126.357 Y117.872
G1 F1800 X109.055 Y100.57 E129.71743
G0 F3000 X109.621 Y100.57
G1 F1800 X125.585 Y116.534 E130.46833
G1 X125.655 Y116.604
G0 F3000 X126.032 Y116.388
G0 X125.212 Y114.967
G0 X124.813 Y115.196
G1 F1800 X110.187 Y100.57 E131.15629
G0 F3000 X110.752 Y100.57
G1 F1800 X124.041 Y113.859 E131.78136
G1 X124.111 Y113.929
G0 F3000 X124.488 Y113.713
G0 X123.668 Y112.292
G0 X123.269 Y112.521
G1 F1800 X111.318 Y100.57 E132.3435
G0 F3000 X111.884 Y100.57
G1 F1800 X122.497 Y111.183 E132.84271
G1 X122.567 Y111.253
G0 F3000 X122.943 Y111.037
G0 X122.123 Y109.616
G0 X121.724 Y109.845
G1 F1800 X112.449 Y100.57 E133.27897
G0 F3000 X113.015 Y100.57
G1 F1800 X120.952 Y108.507 E133.65231
G1 X121.022 Y108.577
G0 F3000 X121.399 Y108.361
G0 X120.579 Y106.94
G0 X120.18 Y107.169
G1 F1800 X113.581 Y100.57 E133.9627
G0 F3000 X114.146 Y100.57
